; filename = 1.3w
; print_time = 6417
; machine = daVinciJR10W
; facets = 225154
; total_layers = 160
; version = 19041616
; total_filament = 3919.62
; nozzle_diameter = 0.40
; nozzle_type = 2
; first_layer_height = 0.35
; layer_height = 0.30
; avoid_crossing_perimeters = 0
; bridge_detect = 0
; bridge_flow_ratio = 0.90
; support_material = 0
; extruder_filament = 3919.62:0.00
; extruder = 1
; temperature = 210
; bed_temperature = 0
; non_double_speed = 1
; preheating_time = 0,0,0
; filamentid = 50,50
; materialid = 0
; fill_density = 0.10
; raft_layers = 0
; shells = 2
; speed = 35.000
; brim_width = 0.000
; dimension = 60.00:31.00:48.05
; original_dimension = 60.00:31.00:48.00
; resolution = 0.0100
; top_solid_layers = 3
; bottom_solid_layers = 3
; fill_pattern = rectilinear
; perimeter_speed = 15.000
; external_perimeter_speed = 15.000
; small_perimeter_speed = 10.000
; top_solid_infill_speed = 35.000
; solid_infill_speed = 35.000
; bridge_speed = 10.000
; travel_speed = 100.000
; retract_speed = 15
; retract_length = 4.000
; retract_before_travel = 2.000
; retract_lift = 0.000
; retract_restart_extra = 0.000
; retract_layer_change = 1
; only_retract_when_crossing_perimeters = 1
; first_layer_speed = 5.000
; extrusion_multiplier_perimeter = 1.000
; extrusion_multiplier_infill = 1.000
; extrusion_multiplier_gapfill = 1.000
; extrusion_multiplier_solid_infill = 1.000
; extrusion_multiplier_top_infill = 1.000
; Call_From_APP = XYZprint V1.3.2
; speed_limit_open = 1
; Total computing time = 0.000 sec. 
; threads = 1
G21 ; set units to millimeters
M107
M104 S210 ; set temperature
M109 S210 ; wait for temperature to be reached
M191
G90 ; use absolute coordinates
G92 E0
M82 ; use absolute distances for extrusion
G1 F900.000 E-4.00000
G92 E0
G1 Z0.350 F6000.000
; skirt start
G1 X3.000 Y131.000
G1 F900.000 E4.00000
G1 X3.000 Y31.000 F300.000 E27.12274
G1 X5.000 Y31.000 E27.58519
G1 X5.000 Y131.000 E50.70793
G1 X3.788 Y131.000 E50.98667
; skirt end
; Region: 0
; perimeter_start
G1 F900.000 E46.98667
G92 E0
G1 X74.813 Y75.838 F6000.000
G1 F900.000 E4.00000
G1 X74.625 Y76.213 F300.000 E4.03953
G1 X74.500 Y76.388 E4.05894
G1 X74.313 Y76.600 E4.08539
G1 X74.100 Y76.750 E4.10901
G1 X73.875 Y76.825 E4.13098
G1 X73.638 Y76.825 E4.15318
G1 X73.425 Y76.738 E4.17483
G1 X73.275 Y76.625 E4.19139
G1 X73.150 Y76.463 E4.20986
G1 X73.075 Y76.313 E4.22612
G1 X73.038 Y76.138 E4.24230
G1 X73.050 Y75.938 E4.26042
G1 X73.125 Y75.713 E4.28241
G1 X73.438 Y75.163 E4.34156
G1 X73.763 Y74.625 E4.40001
G1 X73.863 Y74.438 E4.41871
G1 X73.888 Y74.313 E4.43044
G1 X73.888 Y74.225 E4.43917
G1 X73.850 Y74.113 E4.45043
G1 X73.375 Y73.300 E4.53644
G1 X73.163 Y72.975 E4.57275
G1 X73.050 Y72.725 E4.59798
G1 X73.000 Y72.550 E4.61520
G1 X72.975 Y72.363 E4.63235
G1 X73.000 Y72.188 E4.64876
G1 X73.038 Y72.025 E4.66500
G1 X73.125 Y71.875 E4.68086
G1 X73.250 Y71.750 E4.69683
G1 X73.450 Y71.638 E4.71817
G1 X73.625 Y71.588 E4.73450
G1 X73.788 Y71.575 E4.75056
G1 X73.963 Y71.600 E4.76677
G1 X74.125 Y71.650 E4.78221
G1 X74.263 Y71.750 E4.79762
G1 X74.425 Y71.925 E4.81921
G1 X74.875 Y72.713 E4.90412
G1 X75.075 Y72.325 E4.94452
G1 X75.313 Y71.975 E4.98375
G1 X75.488 Y71.775 E5.00795
G1 X75.675 Y71.650 E5.02891
G1 X75.850 Y71.600 E5.04562
G1 X76.025 Y71.588 E5.06156
G1 X76.238 Y71.650 E5.08263
G1 X76.388 Y71.738 E5.09889
G1 X76.538 Y71.850 E5.11567
G1 X76.663 Y72.050 E5.13732
G1 X76.725 Y72.275 E5.15947
G1 X76.938 Y72.288 E5.17954
G1 X77.063 Y72.013 E5.20764
G1 X77.188 Y71.813 E5.22910
G1 X77.350 Y71.650 E5.25076
G1 X77.538 Y71.513 E5.27221
G1 X77.738 Y71.400 E5.29381
G1 X77.963 Y71.338 E5.31551
G1 X78.200 Y71.313 E5.33701
G1 X78.425 Y71.325 E5.35856
G1 X78.650 Y71.388 E5.38001
G1 X78.875 Y71.475 E5.40171
G1 X79.063 Y71.613 E5.42331
G1 X79.225 Y71.763 E5.44408
G1 X79.300 Y71.875 E5.45625
G1 X79.413 Y72.063 E5.47716
G1 X79.500 Y72.288 E5.49865
G1 X79.538 Y72.513 E5.52020
G1 X79.538 Y73.000 E5.56518
G1 X79.913 Y72.563 E5.61807
G1 X80.188 Y72.313 E5.65245
G1 X80.300 Y72.238 E5.66540
G1 X80.613 Y72.063 E5.69780
G1 X80.825 Y71.975 E5.72010
G1 X81.188 Y71.875 E5.75397
G1 X81.613 Y71.825 E5.79397
G1 X82.138 Y71.788 E5.84302
G1 X82.950 Y71.800 E5.91781
G1 X83.475 Y71.763 E5.96686
G1 X83.638 Y71.775 E5.98209
G1 X83.800 Y71.838 E5.99781
G1 X83.975 Y71.975 E6.01837
G1 X84.100 Y72.188 E6.04060
G1 X84.175 Y72.425 E6.06423
G1 X84.200 Y72.638 E6.08314
G1 X84.175 Y76.938 E6.48143
G1 X84.225 Y77.575 E6.54030
G1 X84.163 Y77.825 E6.56421
G1 X84.025 Y78.025 E6.58659
G1 X83.825 Y78.163 E6.60900
G1 X83.588 Y78.238 E6.63234
G1 X83.363 Y78.275 E6.65370
G1 X82.025 Y78.263 E6.77714
G1 X81.650 Y78.238 E6.81237
G1 X81.188 Y78.175 E6.85494
G1 X80.813 Y78.088 E6.89104
G1 X80.500 Y77.975 E6.92147
G1 X80.300 Y77.863 E6.94278
G1 X80.113 Y77.725 E6.96398
G1 X79.900 Y77.525 E6.99137
G1 X79.738 Y77.338 E7.01399
G1 X79.588 Y77.138 E7.03753
G1 X79.400 Y76.800 E7.07312
G1 X79.250 Y76.425 E7.11034
G1 X79.175 Y76.150 E7.13669
G1 X79.113 Y75.863 E7.16424
G1 X79.063 Y75.363 E7.21017
G1 X79.063 Y74.838 E7.25912
G1 X79.088 Y74.475 E7.29191
G1 X79.138 Y74.150 E7.32260
G1 X79.275 Y73.550 E7.37981
G1 X78.763 Y73.838 E7.43341
G1 X78.538 Y73.913 E7.45513
G1 X78.313 Y73.950 E7.47657
G1 X78.075 Y73.938 E7.49816
G1 X77.850 Y73.900 E7.51960
G1 X77.638 Y73.813 E7.54120
G1 X77.438 Y73.688 E7.56283
G1 X77.263 Y73.525 E7.58437
G1 X77.113 Y73.350 E7.60601
G1 X77.013 Y73.138 E7.62761
G1 X76.938 Y72.925 E7.64902
G1 X76.900 Y72.638 E7.67567
G1 X76.675 Y72.600 E7.69714
G1 X76.550 Y72.875 E7.72403
G1 X76.013 Y73.813 E7.82499
G1 X75.700 Y74.225 E7.87224
G1 X75.975 Y74.625 E7.91626
G1 X76.538 Y75.638 E8.02380
G1 X76.625 Y75.900 E8.04909
G1 X76.650 Y76.063 E8.06471
G1 X76.638 Y76.225 E8.07925
G1 X76.600 Y76.375 E8.09415
G1 X76.513 Y76.525 E8.10995
G1 X76.338 Y76.688 E8.13158
G1 X76.113 Y76.800 E8.15480
G1 X75.938 Y76.825 E8.17147
G1 X75.763 Y76.825 E8.18743
G1 X75.538 Y76.763 E8.20881
G1 X75.338 Y76.625 E8.23137
G1 X75.163 Y76.425 E8.25591
G1 X74.963 Y76.113 E8.28967
G1 X74.750 Y76.250
G1 F900.000 E4.28967
G92 E0
G1 X95.338 Y77.163 F6000.000
G1 F900.000 E4.00000
G1 X95.363 Y76.900 F300.000 E4.01266
G1 X95.463 Y76.663 E4.02440
G1 X95.575 Y76.513 E4.03321
G1 X95.713 Y76.400 E4.04127
G1 X95.800 Y76.350 E4.04625
G1 X95.863 Y76.325 E4.05214
G1 X96.025 Y76.275 E4.06821
G1 X96.200 Y76.275 E4.08404
G1 X96.438 Y76.338 E4.10659
G1 X96.700 Y76.450 E4.13297
G1 X96.750 Y76.488 E4.13874
G1 X97.163 Y76.738 E4.18306
G1 X97.300 Y76.788 E4.19681
G1 X97.513 Y76.813 E4.21689
G1 X97.638 Y76.788 E4.22855
G1 X97.663 Y76.788 E4.23123
G1 X97.763 Y76.763 E4.24063
G1 X97.963 Y76.688 E4.26046
G1 X98.175 Y76.538 E4.28365
G1 X98.250 Y76.450 E4.29451
G1 X98.363 Y76.288 E4.31278
G1 X98.413 Y76.188 E4.32372
G1 X98.463 Y76.088 E4.33424
G1 X98.538 Y75.825 E4.35938
G1 X98.588 Y75.500 E4.38960
G1 X98.613 Y75.213 E4.41621
G1 X98.613 Y75.075 E4.42912
G1 X98.600 Y74.600 E4.47223
G1 X98.550 Y74.275 E4.50349
G1 X98.538 Y74.213 E4.50870
G1 X98.463 Y73.988 E4.53101
G1 X98.325 Y73.700 E4.56032
G1 X98.175 Y73.525 E4.58209
G1 X98.013 Y73.413 E4.59995
G1 X98.000 Y73.400 E4.60119
G1 X97.825 Y73.325 E4.61912
G1 X97.700 Y73.288 E4.63115
G1 X97.488 Y73.250 E4.65165
G1 X97.200 Y73.263 E4.67878
G1 X96.950 Y73.350 E4.70248
G1 X96.875 Y73.400 E4.71112
G1 X96.750 Y73.563 E4.73025
G1 X96.613 Y73.663 E4.74548
G1 X96.463 Y73.738 E4.76123
G1 X96.225 Y73.775 E4.78309
G1 X96.050 Y73.763 E4.79979
G1 X95.875 Y73.713 E4.81619
G1 X95.713 Y73.650 E4.83268
G1 X95.563 Y73.550 E4.84902
G1 X95.450 Y73.425 E4.86438
G1 X95.363 Y73.275 E4.88018
G1 X95.313 Y73.113 E4.89595
G1 X95.300 Y72.925 E4.91377
G1 X95.388 Y72.700 E4.93589
G1 X95.488 Y72.513 E4.95467
G1 X95.600 Y72.350 E4.97431
G1 X95.813 Y72.125 E5.00272
G1 X95.988 Y71.988 E5.02326
G1 X96.275 Y71.825 E5.05311
G1 X96.600 Y71.713 E5.08469
G1 X96.838 Y71.663 E5.10721
G1 X97.088 Y71.638 E5.13091
G1 X97.513 Y71.625 E5.16980
G1 X97.800 Y71.638 E5.19674
G1 X98.075 Y71.688 E5.22196
G1 X98.350 Y71.763 E5.24933
G1 X98.600 Y71.863 E5.27318
G1 X98.825 Y71.975 E5.29697
G1 X99.138 Y72.188 E5.33157
G1 X99.413 Y72.438 E5.36630
G1 X99.575 Y72.638 E5.39018
G1 X99.725 Y72.850 E5.41381
G1 X99.850 Y73.075 E5.43773
G1 X99.963 Y73.313 E5.46184
G1 X100.050 Y73.563 E5.48698
G1 X100.163 Y73.975 E5.52658
G1 X100.213 Y74.300 E5.55636
G1 X100.250 Y74.813 E5.60407
G1 X100.250 Y75.188 E5.63913
G1 X100.238 Y75.363 E5.65483
G1 X100.225 Y75.563 E5.67329
G1 X100.163 Y76.063 E5.71985
G1 X100.100 Y76.350 E5.74732
G1 X100.088 Y76.375 E5.74976
G1 X100.000 Y76.650 E5.77718
G1 X99.888 Y76.913 E5.80297
G1 X99.763 Y77.150 E5.82756
G1 X99.688 Y77.263 E5.83981
G1 X99.613 Y77.363 E5.85174
G1 X99.450 Y77.563 E5.87581
G1 X99.188 Y77.825 E5.91035
G1 X99.000 Y77.963 E5.93230
G1 X98.975 Y77.975 E5.93406
G1 X98.763 Y78.113 E5.95739
G1 X98.538 Y78.225 E5.98070
G1 X98.300 Y78.313 E6.00425
G1 X98.088 Y78.363 E6.02479
G1 X98.038 Y78.375 E6.02935
G1 X97.675 Y78.425 E6.06358
G1 X97.313 Y78.438 E6.09666
G1 X97.088 Y78.425 E6.11728
G1 X97.025 Y78.425 E6.12289
G1 X96.763 Y78.375 E6.14809
G1 X96.525 Y78.313 E6.17108
G1 X96.300 Y78.238 E6.19277
G1 X96.138 Y78.150 E6.20977
G1 X96.113 Y78.138 E6.21127
G1 X95.913 Y78.013 E6.22232
G1 X95.650 Y77.788 E6.23778
G1 X95.475 Y77.575 E6.25059
G1 X95.425 Y77.475 E6.25602
G1 X95.088 Y77.050
G1 X94.900 Y77.300
G1 X94.913 Y77.475 E6.26424
G1 X94.900 Y77.650 E6.27244
G1 X94.850 Y77.813 E6.28047
G1 X94.763 Y77.963 E6.28842
G1 X94.663 Y78.100 E6.29640
G1 X94.550 Y78.175 E6.30226
G1 X94.513 Y78.200 E6.30681
G1 X94.325 Y78.275 E6.32572
G1 X94.088 Y78.300 E6.34787
G1 X93.575 Y78.263 E6.39475
G1 X93.513 Y78.250 E6.40158
G1 X92.575 Y78.263 E6.48724
G1 X91.575 Y78.263 E6.57973
G1 X90.575 Y78.275 E6.67223
G1 X90.263 Y78.275 E6.70117
G1 X90.038 Y78.238 E6.72323
G1 X89.875 Y78.188 E6.73835
G1 X89.750 Y78.088 E6.75319
G1 X89.663 Y78.000 E6.76472
G1 X89.638 Y77.963 E6.76818
G1 X89.575 Y77.813 E6.78372
G1 X89.525 Y77.588 E6.80578
G1 X89.525 Y77.400 E6.82308
G1 X89.563 Y77.188 E6.84224
G1 X89.638 Y77.050 E6.85721
G1 X89.638 Y77.038 E6.85791
G1 X89.738 Y76.913 E6.87301
G1 X89.863 Y76.813 E6.88813
G1 X90.075 Y76.725 E6.90918
G1 X90.350 Y76.675 E6.93486
G1 X90.800 Y76.663 E6.97684
G1 X91.438 Y76.688 E7.03578
G1 X91.450 Y73.475 E7.33311
G1 X91.425 Y72.725 E7.40274
G1 X91.463 Y72.438 E7.42892
G1 X91.538 Y72.200 E7.45220
G1 X91.638 Y72.050 E7.46844
G1 X91.750 Y71.925 E7.48431
G1 X91.900 Y71.838 E7.50071
G1 X92.125 Y71.775 E7.52171
G1 X92.300 Y71.763 E7.53848
G1 X92.488 Y71.788 E7.55516
G1 X92.513 Y71.800 E7.55809
G1 X92.650 Y71.838 E7.57148
G1 X92.800 Y71.925 E7.58782
G1 X92.950 Y72.100 E7.60865
G1 X93.025 Y72.263 E7.62501
G1 X93.050 Y72.488 E7.64591
G1 X93.050 Y72.538 E7.65058
G1 X93.013 Y72.963 E7.69030
G1 X93.013 Y73.538 E7.74307
G1 X93.025 Y74.538 E7.83556
G1 X93.025 Y75.538 E7.92805
G1 X93.025 Y75.850 E7.95753
G1 X93.000 Y76.350 E8.00335
G1 X93.000 Y76.500 E8.01779
G1 X93.013 Y76.525 E8.02054
G1 X93.013 Y76.563 E8.02378
G1 X93.063 Y76.625 E8.03061
G1 X93.150 Y76.675 E8.04056
G1 X93.263 Y76.700 E8.05105
G1 X93.438 Y76.700 E8.06724
G1 X93.913 Y76.650 E8.11168
G1 X93.925 Y76.650 E8.11303
G1 X94.188 Y76.638 E8.12490
G1 X94.413 Y76.675 E8.13550
G1 X94.563 Y76.750 E8.14324
G1 X94.688 Y76.850 E8.15070
G1 X94.800 Y77.000 E8.15928
G1 X95.075 Y77.363
G1 F900.000 E4.15928
G92 E0
G1 X85.725 Y75.475 F6000.000
G1 F900.000 E4.00000
G1 X85.575 Y75.388 F300.000 E4.01654
G1 X85.438 Y75.263 E4.03364
G1 X85.288 Y75.050 E4.05684
G1 X85.188 Y74.788 E4.08348
G1 X85.013 Y74.213 E4.13920
G1 X84.963 Y73.875 E4.16987
G1 X84.963 Y73.650 E4.19109
G1 X85.013 Y73.338 E4.22055
G1 X85.075 Y73.113 E4.24232
G1 X85.163 Y72.888 E4.26442
G1 X85.275 Y72.675 E4.28689
G1 X85.400 Y72.475 E4.30897
G1 X85.550 Y72.288 E4.33099
G1 X85.800 Y72.063 E4.36227
G1 X86.088 Y71.875 E4.39363
G1 X86.300 Y71.775 E4.41534
G1 X86.525 Y71.713 E4.43676
G1 X86.863 Y71.638 E4.46854
G1 X87.138 Y71.625 E4.49385
G1 X87.550 Y71.625 E4.53253
G1 X87.813 Y71.663 E4.55627
G1 X88.063 Y71.713 E4.58063
G1 X88.350 Y71.800 E4.60803
G1 X88.675 Y71.988 E4.64346
G1 X88.825 Y72.125 E4.66176
G1 X88.938 Y72.263 E4.67877
G1 X89.025 Y72.413 E4.69432
G1 X89.100 Y72.663 E4.71804
G1 X89.113 Y72.850 E4.73541
G1 X89.088 Y73.025 E4.75195
G1 X89.038 Y73.188 E4.76806
G1 X88.950 Y73.338 E4.78462
G1 X88.775 Y73.500 E4.80616
G1 X88.550 Y73.588 E4.82820
G1 X88.363 Y73.625 E4.84558
G1 X88.100 Y73.613 E4.86991
G1 X87.875 Y73.550 E4.89149
G1 X87.713 Y73.475 E4.90811
G1 X87.313 Y73.175 E4.95487
G1 X87.238 Y73.150 E4.96202
G1 X87.138 Y73.150 E4.97073
G1 X86.988 Y73.188 E4.98527
G1 X86.925 Y73.238 E4.99301
G1 X86.825 Y73.325 E5.00536
G1 X86.713 Y73.500 E5.02480
G1 X86.688 Y73.675 E5.04047
G1 X86.700 Y73.813 E5.05365
G1 X86.725 Y73.888 E5.06128
G1 X86.800 Y74.038 E5.07710
G1 X86.913 Y74.200 E5.09481
G1 X87.000 Y74.288 E5.10635
G1 X87.100 Y74.350 E5.11760
G1 X87.275 Y74.438 E5.13575
G1 X87.400 Y74.488 E5.14727
G1 X87.813 Y74.550 E5.18623
G1 X88.050 Y74.625 E5.20900
G1 X88.225 Y74.738 E5.22918
G1 X88.350 Y74.888 E5.24630
G1 X88.425 Y75.100 E5.26782
G1 X88.425 Y75.363 E5.29133
G1 X88.363 Y75.613 E5.31556
G1 X88.275 Y75.788 E5.33293
G1 X88.175 Y75.925 E5.34913
G1 X88.038 Y76.038 E5.36534
G1 X87.825 Y76.125 E5.38714
G1 X87.313 Y76.213 E5.43467
G1 X87.138 Y76.313 E5.45343
G1 X87.025 Y76.425 E5.46813
G1 X86.988 Y76.550 E5.47976
G1 X86.988 Y76.663 E5.49016
G1 X87.025 Y76.775 E5.50154
G1 X87.088 Y76.850 E5.51048
G1 X87.150 Y76.875 E5.51703
G1 X87.238 Y76.900 E5.52483
G1 X87.363 Y76.888 E5.53615
G1 X87.438 Y76.875 E5.54360
G1 X87.588 Y76.800 E5.55885
G1 X87.863 Y76.613 E5.58918
G1 X88.075 Y76.500 E5.61193
G1 X88.225 Y76.463 E5.62687
G1 X88.400 Y76.450 E5.64265
G1 X88.613 Y76.525 E5.66351
G1 X88.788 Y76.650 E5.68290
G1 X88.900 Y76.775 E5.69920
G1 X89.000 Y76.925 E5.71583
G1 X89.075 Y77.088 E5.73263
G1 X89.113 Y77.275 E5.74975
G1 X89.088 Y77.500 E5.77136
G1 X88.988 Y77.725 E5.79389
G1 X88.825 Y77.925 E5.81718
G1 X88.675 Y78.038 E5.83531
G1 X88.413 Y78.200 E5.86369
G1 X88.200 Y78.288 E5.88492
G1 X87.975 Y78.350 E5.90650
G1 X87.625 Y78.425 E5.93988
G1 X87.288 Y78.438 E5.97091
G1 X87.000 Y78.438 E5.99769
G1 X86.713 Y78.400 E6.02466
G1 X86.363 Y78.325 E6.05714
G1 X86.063 Y78.213 E6.08769
G1 X85.875 Y78.100 E6.10772
G1 X85.700 Y77.975 E6.12696
G1 X85.563 Y77.825 E6.14627
G1 X85.438 Y77.663 E6.16535
G1 X85.338 Y77.488 E6.18395
G1 X85.263 Y77.300 E6.20225
G1 X85.213 Y77.025 E6.22864
G1 X85.213 Y76.688 E6.25910
G1 X85.263 Y76.200 E6.30503
G1 X85.338 Y75.938 E6.32975
G1 X85.500 Y75.700 E6.35594
G1 X85.550 Y75.463
G1 X84.825 Y77.988 F6000.000
G1 X85.288 Y78.450 F300.000 E6.41593
G1 X85.513 Y78.625 E6.44279
G1 X85.775 Y78.788 E6.47123
G1 X86.175 Y78.938 E6.51103
G1 X86.613 Y79.038 E6.55132
G1 X86.950 Y79.075 E6.58385
G1 X87.300 Y79.075 E6.61573
G1 X87.700 Y79.050 E6.65263
G1 X88.125 Y78.975 E6.69284
G1 X88.413 Y78.888 E6.72101
G1 X88.700 Y78.763 E6.74913
G1 X89.188 Y78.475 E6.80182
G1 X89.575 Y78.750 E6.84583
G1 X89.875 Y78.863 E6.87517
G1 X90.238 Y78.913 E6.90854
G1 X93.488 Y78.888 E7.20961
G1 X94.088 Y78.938 E7.26538
G1 X94.475 Y78.900 E7.30062
G1 X94.825 Y78.763 E7.33575
G1 X95.100 Y78.563 E7.36686
G1 X95.300 Y78.325 E7.39624
G1 X95.525 Y78.513 E7.42379
G1 X95.788 Y78.688 E7.45287
G1 X96.038 Y78.813 E7.47905
G1 X96.325 Y78.925 E7.50712
G1 X96.638 Y79.000 E7.53639
G1 X96.963 Y79.050 E7.56723
G1 X97.300 Y79.075 E7.59867
G1 X97.725 Y79.063 E7.63775
G1 X98.163 Y79.000 E7.67865
G1 X98.488 Y78.913 E7.70993
G1 X98.788 Y78.813 E7.73922
G1 X99.075 Y78.675 E7.76827
G1 X99.338 Y78.513 E7.79733
G1 X99.950 Y78.050 E7.86752
G1 X99.950 Y79.950 E8.04345
G1 X99.925 Y80.088 E8.05615
G1 X99.900 Y80.213 E8.06788
G1 X99.800 Y80.413 E8.08788
G1 X99.663 Y80.563 E8.10711
G1 X99.488 Y80.663 E8.12604
G1 X99.263 Y80.725 E8.14761
G1 X75.488 Y82.188 E10.35105
G1 X74.488 Y82.188 E10.44326
G1 X73.688 Y82.138 E10.51708
G1 X72.825 Y82.038 E10.59707
G1 X71.800 Y81.838 E10.69396
G1 X71.050 Y81.638 E10.76625
G1 X70.563 Y81.488 E10.81252
G1 X69.975 Y81.288 E10.87025
G1 X69.325 Y81.025 E10.93567
G1 X68.825 Y80.788 E10.98649
G1 X67.875 Y80.288 E11.08541
G1 X67.188 Y79.863 E11.16069
G1 X66.313 Y79.225 E11.26087
G1 X65.800 Y78.813 E11.32186
G1 X65.300 Y78.363 E11.38339
G1 X64.388 Y77.463 E11.50242
G1 X67.125 Y77.463 E11.75563
G1 X67.525 Y77.425 E11.79320
G1 X67.888 Y77.325 E11.82749
G1 X68.250 Y77.125 E11.86634
G1 X68.500 Y77.313 E11.89509
G1 X68.938 Y77.475 E11.93866
G1 X69.425 Y77.438 E11.98412
G1 X69.825 Y77.250 E12.02472
G1 X70.075 Y77.038 E12.05465
G1 X70.425 Y76.575 E12.10909
G1 X70.713 Y76.963 E12.15330
G1 X70.950 Y77.163 E12.18208
G1 X71.250 Y77.338 E12.21485
G1 X71.563 Y77.438 E12.24496
G1 X71.975 Y77.475 E12.28341
G1 X72.400 Y77.388 E12.32249
G1 X72.888 Y77.125 E12.37451
G1 X73.100 Y77.288 E12.39854
G1 X73.500 Y77.450 E12.43963
G1 X73.988 Y77.463 E12.48420
G1 X74.400 Y77.313 E12.52507
G1 X74.800 Y77.025 E12.57114
G1 X75.263 Y77.338 E12.62212
G1 X75.663 Y77.463 E12.66127
G1 X75.988 Y77.463 E12.69195
G1 X76.313 Y77.400 E12.72214
G1 X76.700 Y77.213 E12.76187
G1 X77.013 Y76.925 E12.80082
G1 X77.188 Y76.638 E12.83271
G1 X77.275 Y76.325 E12.86224
G1 X77.288 Y76.038 E12.88882
G1 X77.238 Y75.750 E12.91534
G1 X77.125 Y75.388 E12.95081
G1 X76.600 Y74.450 E13.04989
G1 X76.938 Y74.125 E13.09348
G1 X77.350 Y74.375 E13.13785
G1 X77.675 Y74.500 E13.16993
G1 X78.013 Y74.575 E13.20161
G1 X78.425 Y74.588 E13.23978
G1 X78.425 Y75.400 E13.31529
G1 X78.488 Y75.950 E13.36677
G1 X78.550 Y76.300 E13.39924
G1 X78.650 Y76.625 E13.43084
G1 X78.825 Y77.075 E13.47492
G1 X79.050 Y77.475 E13.51783
G1 X79.238 Y77.738 E13.54765
G1 X79.438 Y77.975 E13.57646
G1 X79.713 Y78.225 E13.61070
G1 X79.963 Y78.400 E13.63860
G1 X80.225 Y78.550 E13.66719
G1 X80.613 Y78.700 E13.70565
G1 X81.075 Y78.813 E13.74889
G1 X81.588 Y78.875 E13.79675
G1 X82.000 Y78.900 E13.83572
G1 X83.400 Y78.913 E13.96427
G1 X83.738 Y78.863 E13.99604
G1 X84.113 Y78.738 E14.03303
G1 X84.475 Y78.488 E14.07401
G1 X84.638 Y78.250 E14.10018
G1 F900.000 E10.10018
G92 E0
G1 X88.650 Y74.238 F6000.000
G1 F900.000 E4.00000
G1 X89.113 Y74.038 F300.000 E4.04744
G1 X89.438 Y73.750 E4.08717
G1 X89.625 Y73.463 E4.11949
G1 X89.713 Y73.163 E4.14875
G1 X89.750 Y72.850 E4.17697
G1 X89.725 Y72.538 E4.20606
G1 X89.613 Y72.163 E4.24205
G1 X89.475 Y71.913 E4.26852
G1 X89.288 Y71.688 E4.29583
G1 X89.063 Y71.475 E4.32477
G1 X88.750 Y71.288 E4.35812
G1 X88.575 Y71.213 E4.37574
G1 X88.225 Y71.100 E4.40963
G1 X87.913 Y71.025 E4.44000
G1 X87.588 Y70.988 E4.46931
G1 X87.113 Y70.988 E4.51358
G1 X86.775 Y71.013 E4.54498
G1 X86.363 Y71.088 E4.58398
G1 X86.075 Y71.188 E4.61240
G1 X85.788 Y71.313 E4.64151
G1 X85.413 Y71.550 E4.68192
G1 X85.088 Y71.850 E4.72234
G1 X84.838 Y72.163 E4.76030
G1 X84.463 Y71.550 E4.82637
G1 X84.125 Y71.275 E4.86659
G1 X83.800 Y71.163 E4.89854
G1 X83.500 Y71.125 E4.92613
G1 X82.913 Y71.163 E4.98084
G1 X82.138 Y71.150 E5.05316
G1 X81.550 Y71.188 E5.10695
G1 X81.063 Y71.263 E5.15294
G1 X80.638 Y71.363 E5.19374
G1 X80.338 Y71.488 E5.22361
G1 X79.975 Y71.688 E5.26193
G1 X79.700 Y71.338 E5.30313
G1 X79.463 Y71.113 E5.33286
G1 X79.175 Y70.925 E5.36493
G1 X78.863 Y70.775 E5.39722
G1 X78.525 Y70.700 E5.42901
G1 X78.188 Y70.675 E5.46084
G1 X77.838 Y70.713 E5.49276
G1 X77.500 Y70.813 E5.52509
G1 X77.200 Y70.963 E5.55712
G1 X76.825 Y71.250 E5.60039
G1 X76.475 Y71.050 E5.63685
G1 X76.088 Y70.950 E5.67349
G1 X75.738 Y70.963 E5.70613
G1 X75.388 Y71.075 E5.73994
G1 X74.850 Y71.450 E5.80078
G1 X74.675 Y71.263 E5.82408
G1 X74.413 Y71.088 E5.85337
G1 X74.125 Y70.975 E5.88231
G1 X73.400 Y70.875 E5.95026
G1 X73.625 Y70.325 E6.00550
G1 X73.663 Y70.000 E6.03601
G1 X73.625 Y69.600 E6.07363
G1 X73.475 Y69.213 E6.11169
G1 X73.313 Y68.950 E6.13978
G1 X73.100 Y68.738 E6.16753
G1 X72.838 Y68.575 E6.19659
G1 X72.550 Y68.463 E6.22540
G1 X72.600 Y67.988 E6.26944
G1 X73.325 Y67.888 E6.33699
G1 X73.938 Y67.825 E6.39419
G1 X74.650 Y67.800 E6.45980
G1 X75.663 Y67.813 E6.55328
G1 X99.250 Y69.263 E8.73985
G1 X99.488 Y69.325 E8.76149
G1 X99.588 Y69.375 E8.77237
G1 X99.738 Y69.500 E8.79008
G1 X99.850 Y69.663 E8.80936
G1 X99.900 Y69.775 E8.82010
G1 X99.950 Y70.038 E8.84448
G1 X99.950 Y71.975 E9.02365
G1 X99.150 Y71.425 E9.11274
G1 X98.850 Y71.288 E9.14300
G1 X98.563 Y71.163 E9.17279
G1 X98.213 Y71.063 E9.20634
G1 X97.875 Y71.013 E9.23735
G1 X97.525 Y70.988 E9.26994
G1 X97.038 Y71.000 E9.31464
G1 X96.725 Y71.038 E9.34397
G1 X96.425 Y71.100 E9.37290
G1 X96.013 Y71.250 E9.41303
G1 X95.650 Y71.450 E9.45200
G1 X95.388 Y71.650 E9.48128
G1 X95.113 Y71.938 E9.51877
G1 X94.938 Y72.188 E9.54675
G1 X94.800 Y72.438 E9.57319
G1 X94.663 Y72.825 E9.61102
G1 X94.688 Y73.225 E9.64818
G1 X94.775 Y73.538 E9.67862
G1 X94.950 Y73.813 E9.70809
G1 X95.150 Y74.025 E9.73575
G1 X95.400 Y74.200 E9.76351
G1 X95.663 Y74.325 E9.79071
G1 X95.950 Y74.388 E9.81740
G1 X96.263 Y74.413 E9.84634
G1 X96.650 Y74.350 E9.88286
G1 X96.938 Y74.213 E9.91264
G1 X97.200 Y74.025 E9.94194
G1 X97.325 Y73.863 E9.96060
G1 X97.588 Y73.913 E9.98548
G1 X97.688 Y73.963 E9.99628
G1 X97.775 Y74.025 E10.00619
G1 X97.863 Y74.200 E10.02444
G1 X97.925 Y74.400 E10.04419
G1 X97.963 Y74.663 E10.06865
G1 X97.975 Y75.063 E10.10599
G1 X97.963 Y75.425 E10.13969
G1 X97.913 Y75.675 E10.16310
G1 X97.863 Y75.863 E10.18011
G1 X97.813 Y75.975 E10.19212
G1 X97.738 Y76.088 E10.20507
G1 X97.475 Y76.188 E10.23035
G1 X97.000 Y75.900 E10.28274
G1 X96.650 Y75.725 E10.31870
G1 X96.275 Y75.638 E10.35402
G1 X95.950 Y75.638 E10.38377
G1 X95.638 Y75.725 E10.41408
G1 X95.350 Y75.875 E10.44363
G1 X94.938 Y76.225 E10.49372
G1 X94.613 Y76.063 E10.52726
G1 X94.225 Y75.988 E10.56345
G1 X93.663 Y76.025 E10.61516
G1 X93.650 Y72.988 E10.89624
G1 X93.700 Y72.463 E10.94421
G1 X93.638 Y72.088 E10.97926
G1 X93.500 Y71.750 E11.01351
G1 X93.200 Y71.425 E11.05400
G1 X92.913 Y71.263 E11.08563
G1 X92.625 Y71.163 E11.11318
G1 X92.338 Y71.125 E11.14045
G1 X92.025 Y71.138 E11.16928
G1 X91.650 Y71.250 E11.20535
G1 X91.350 Y71.425 E11.23696
G1 X91.138 Y71.650 E11.26639
G1 X90.963 Y71.925 E11.29588
G1 X90.838 Y72.300 E11.33253
G1 X90.788 Y72.700 E11.36920
G1 X90.813 Y73.475 E11.44190
G1 X90.813 Y76.025 E11.67774
G1 X90.288 Y76.050 E11.72577
G1 X89.900 Y76.113 E11.76194
G1 X89.363 Y76.338 E11.81594
G1 X89.200 Y76.163 E11.83732
G1 X88.925 Y75.963 E11.86855
G1 X89.063 Y75.438 E11.91964
G1 X89.050 Y74.988 E11.96037
G1 X88.913 Y74.575 E12.00141
G1 X88.838 Y74.488 E12.01115
G1 F900.000 E8.01115
G92 E0
G1 X68.875 Y72.525 F6000.000
G1 F900.000 E4.00000
G1 X68.588 Y71.725 F300.000 E4.07850
G1 X68.413 Y71.438 E4.10939
G1 X68.175 Y71.200 E4.14087
G1 X67.825 Y71.013 E4.17737
G1 X67.500 Y70.950 E4.20764
G1 X67.163 Y70.938 E4.23935
G1 X66.775 Y70.963 E4.27526
G1 X66.625 Y70.525 E4.31785
G1 X67.113 Y70.188 E4.37329
G1 X67.800 Y69.750 E4.44834
G1 X68.338 Y69.450 E4.50524
G1 X69.175 Y69.038 E4.59262
G1 X69.588 Y68.863 E4.63340
G1 X70.275 Y68.600 E4.70200
G1 X70.538 Y68.988 E4.74554
G1 X70.200 Y69.375 E4.79314
G1 X69.975 Y69.738 E4.83285
G1 X69.750 Y70.213 E4.88144
G1 X69.275 Y71.413 E5.00079
G1 X68.988 Y72.225 E5.08019
G1 F900.000 E1.08019
G92 E0
G1 X64.675 Y73.813 F6000.000
G1 F900.000 E4.00000
G1 X63.888 Y74.938 F300.000 E4.12697
G1 X63.725 Y75.263 E4.16126
G1 X63.625 Y75.550 E4.18857
G1 X63.513 Y76.325 E4.26149
G1 X63.063 Y75.625 E4.33841
G1 X62.775 Y75.138 E4.39085
G1 X62.738 Y74.975 E4.40642
G1 X62.763 Y74.888 E4.41467
G1 X62.975 Y74.488 E4.45691
G1 X63.288 Y74.000 E4.51110
G1 X63.763 Y73.338 E4.58636
G1 X64.263 Y73.675 E4.64181
G1 X64.375 Y73.713 E4.65319
G1 X65.900 Y73.188 F6000.000
G1 X64.438 Y75.263 F300.000 E4.88781
G1 X64.313 Y75.513 E4.91361
G1 X64.250 Y75.688 E4.93110
G1 X64.225 Y75.900 E4.95092
G1 X64.225 Y76.100 E4.96869
G1 X64.275 Y76.338 E4.99194
G1 X64.375 Y76.538 E5.01280
G1 X64.538 Y76.700 E5.03392
G1 X64.700 Y76.775 E5.05014
G1 X64.938 Y76.825 E5.07257
G1 X67.100 Y76.825 E5.27204
G1 X67.413 Y76.800 E5.30129
G1 X67.638 Y76.738 E5.32317
G1 X67.775 Y76.650 E5.33849
G1 X67.900 Y76.550 E5.35346
G1 X67.988 Y76.400 E5.36898
G1 X68.050 Y76.238 E5.38517
G1 X68.088 Y76.013 E5.40675
G1 X68.338 Y76.000 E5.43058
G1 X68.388 Y76.225 E5.45134
G1 X68.463 Y76.400 E5.46889
G1 X68.613 Y76.600 E5.49167
G1 X68.800 Y76.750 E5.51474
G1 X69.038 Y76.825 E5.53693
G1 X69.263 Y76.813 E5.55863
G1 X69.475 Y76.713 E5.57978
G1 X69.613 Y76.600 E5.59627
G1 X69.775 Y76.388 E5.62100
G1 X69.925 Y76.113 E5.65034
G1 X70.013 Y75.875 E5.67300
G1 X70.450 Y74.613 E5.79709
G1 X70.838 Y75.625 E5.89796
G1 X70.988 Y76.175 E5.94994
G1 X71.088 Y76.400 E5.97259
G1 X71.188 Y76.538 E5.98829
G1 X71.313 Y76.650 E6.00435
G1 X71.513 Y76.750 E6.02444
G1 X71.688 Y76.813 E6.04216
G1 X71.950 Y76.838 E6.06574
G1 X72.175 Y76.788 E6.08771
G1 X72.325 Y76.700 E6.10332
G1 X72.450 Y76.588 E6.11859
G1 X72.538 Y76.438 E6.13459
G1 X72.588 Y76.213 E6.15607
G1 X72.588 Y75.950 E6.18075
G1 X72.563 Y75.738 E6.20021
G1 X72.500 Y75.513 E6.22167
G1 X72.163 Y74.675 E6.30526
G1 X71.525 Y72.938 E6.47641
G1 X71.300 Y72.450 E6.52588
G1 X71.263 Y72.325 E6.53822
G1 X71.263 Y72.250 E6.54575
G1 X71.300 Y72.138 E6.55632
G1 X71.550 Y71.588 E6.61179
G1 X71.725 Y71.113 E6.65879
G1 X71.838 Y70.925 E6.67964
G1 X71.975 Y70.788 E6.69715
G1 X72.113 Y70.713 E6.71179
G1 X72.588 Y70.588 E6.75649
G1 X72.788 Y70.475 E6.77792
G1 X72.938 Y70.313 E6.79858
G1 X73.000 Y70.163 E6.81437
G1 X73.025 Y69.988 E6.83027
G1 X73.000 Y69.750 E6.85292
G1 X72.913 Y69.500 E6.87696
G1 X72.813 Y69.350 E6.89332
G1 X72.700 Y69.238 E6.90872
G1 X72.550 Y69.138 E6.92443
G1 X72.388 Y69.075 E6.94117
G1 X72.150 Y69.050 E6.96346
G1 X71.863 Y69.088 E6.98942
G1 X71.538 Y69.175 E7.02144
G1 X71.238 Y69.300 E7.05146
G1 X71.063 Y69.413 E7.07064
G1 X70.900 Y69.538 E7.08932
G1 X70.713 Y69.750 E7.11610
G1 X70.525 Y70.038 E7.14737
G1 X70.325 Y70.463 E7.19054
G1 X69.875 Y71.638 E7.30704
G1 X68.663 Y75.050 E7.64229
G1 X68.425 Y75.588 E7.69702
G1 X68.325 Y75.950 E7.73162
G1 X68.088 Y75.950 E7.75302
G1 X68.000 Y75.663 E7.78107
G1 X67.925 Y75.525 E7.79587
G1 X67.800 Y75.400 E7.81158
G1 X67.600 Y75.300 E7.83263
G1 X67.350 Y75.238 E7.85668
G1 X66.875 Y75.200 E7.90122
G1 X66.438 Y75.200 E7.94105
G1 X67.850 Y73.238 E8.16458
G1 X68.013 Y72.963 E8.19427
G1 X68.088 Y72.700 E8.21968
G1 X68.113 Y72.438 E8.24452
G1 X68.075 Y72.175 E8.26874
G1 X68.013 Y72.000 E8.28554
G1 X67.913 Y71.838 E8.30331
G1 X67.788 Y71.713 E8.31934
G1 X67.600 Y71.613 E8.33921
G1 X67.425 Y71.575 E8.35536
G1 X67.175 Y71.575 E8.37887
G1 X66.763 Y71.600 E8.41759
G1 X65.025 Y71.600 E8.57761
G1 X64.688 Y71.638 E8.60987
G1 X64.588 Y71.438 E8.63007
G1 X65.113 Y70.938 E8.69669
G1 X65.675 Y70.450 E8.76551
G1 X66.125 Y70.113 E8.81762
G1 X66.750 Y69.650 E8.88979
G1 X67.475 Y69.200 E8.96795
G1 X68.025 Y68.888 E9.02746
G1 X68.475 Y68.663 E9.07388
G1 X69.338 Y68.275 E9.16160
G1 X69.800 Y68.088 E9.20702
G1 X70.513 Y67.850 E9.27647
G1 X71.338 Y67.613 E9.35646
G1 X72.075 Y67.438 E9.42630
G1 X72.625 Y67.338 E9.47839
G1 X73.250 Y67.263 E9.53631
G1 X73.900 Y67.200 E9.59618
G1 X74.638 Y67.163 E9.66430
G1 X75.688 Y67.175 E9.76203
G1 X99.338 Y68.625 E11.95369
G1 X99.575 Y68.675 E11.97591
G1 X99.738 Y68.738 E11.99134
G1 X99.913 Y68.825 E12.01034
G1 X100.063 Y68.938 E12.02716
G1 X100.200 Y69.063 E12.04508
G1 X100.325 Y69.213 E12.06326
G1 X100.425 Y69.388 E12.08140
G1 X100.500 Y69.575 E12.10015
G1 X100.550 Y69.775 E12.11957
G1 X100.575 Y70.000 E12.13964
G1 X100.575 Y79.988 E13.06432
G1 X100.550 Y80.213 E13.08439
G1 X100.500 Y80.413 E13.10380
G1 X100.425 Y80.600 E13.12258
G1 X100.325 Y80.763 E13.14011
G1 X100.200 Y80.925 E13.15897
G1 X100.063 Y81.050 E13.17671
G1 X99.913 Y81.163 E13.19346
G1 X99.738 Y81.250 E13.21236
G1 X99.550 Y81.313 E13.23087
G1 X99.338 Y81.363 E13.25011
G1 X75.513 Y82.813 E15.45851
G1 X74.463 Y82.825 E15.55540
G1 X73.625 Y82.775 E15.63233
G1 X72.738 Y82.663 E15.71545
G1 X72.263 Y82.575 E15.76066
G1 X71.663 Y82.450 E15.81739
G1 X70.875 Y82.250 E15.89240
G1 X70.363 Y82.100 E15.94119
G1 X69.750 Y81.875 E16.00151
G1 X69.075 Y81.600 E16.06962
G1 X68.125 Y81.150 E16.16635
G1 X67.563 Y80.838 E16.22653
G1 X66.838 Y80.388 E16.30529
G1 X65.925 Y79.725 E16.40930
G1 X65.388 Y79.288 E16.47352
G1 X64.863 Y78.825 E16.53769
G1 X64.463 Y78.425 E16.59095
G1 X64.088 Y78.025 E16.64171
G1 X63.688 Y77.575 E16.69650
G1 X63.175 Y76.913 E16.77441
G1 X62.850 Y76.475 E16.82493
G1 X62.525 Y75.963 E16.88083
G1 X62.200 Y75.425 E16.93835
G1 X62.125 Y75.188 E16.96220
G1 X62.100 Y75.025 E16.97766
G1 X62.113 Y74.863 E16.99188
G1 X62.150 Y74.700 E17.00777
G1 X62.213 Y74.525 E17.02467
G1 X62.438 Y74.163 E17.06462
G1 X62.763 Y73.638 E17.12139
G1 X63.225 Y73.000 E17.19360
G1 X63.525 Y72.613 E17.23915
G1 X63.950 Y72.113 E17.29994
G1 X64.150 Y72.200 E17.32038
G1 X64.138 Y72.450 E17.34406
G1 X64.175 Y72.688 E17.36606
G1 X64.250 Y72.838 E17.38169
G1 X64.363 Y72.975 E17.39714
G1 X64.550 Y73.100 E17.41808
G1 X64.775 Y73.175 E17.44093
G1 X64.975 Y73.213 E17.45965
G1 X65.250 Y73.225 E17.48487
G1 X65.588 Y73.213 E17.51573
G1 X65.413 Y73.563
G1 F900.000 E13.51573
G92 E0
G1 X100.088 Y74.538 F6000.000
G1 F900.000 E4.00000
G1 X100.700 Y74.538 F300.000 E4.05610
G1 X100.700 Y75.250 E4.12179
G1 X100.088 Y75.250 E4.17789
G1 X100.088 Y74.850 E4.21418
; perimeter_end
; infill_start
G1 F900.000 E0.21418
G92 E0
G1 X97.263 Y74.888 F6000.000
G1 F900.000 E4.00000
G1 X96.675 Y75.038 F300.000 E4.07968
G1 F900.000 E0.07968
G92 E0
G1 X97.338 Y70.438 F6000.000
G1 F900.000 E4.00000
G1 X97.338 Y69.650 F300.000 E4.10345
G1 X98.063 Y69.650 E4.19976
G1 X98.063 Y70.438 E4.30322
G1 X97.788 Y70.438 E4.33995
G1 X98.388 Y69.700
G1 X99.488 Y70.788 E4.50715
G1 F900.000 E0.50715
G92 E0
G1 X99.538 Y78.938 F6000.000
G1 F900.000 E4.00000
G1 X98.913 Y79.800 F300.000 E4.15125
G1 X97.400 Y80.013 E4.36708
G1 F900.000 E0.36708
G92 E0
G1 X68.525 Y73.100 F6000.000
G1 F900.000 E4.00000
G1 X68.500 Y73.500 F300.000 E4.03681
G1 X68.250 Y73.638 E4.06307
G1 X68.050 Y74.363
G1 X67.963 Y74.550 E4.09132
G1 X68.913 Y80.313 F6000.000
G1 X66.525 Y77.925 F300.000 E4.41292
G1 X67.425 Y77.900 E4.49864
G1 X70.513 Y80.988 E4.91440
G1 X71.825 Y81.363 E5.04369
G1 X68.175 Y77.725 E5.53452
G1 X69.288 Y77.913 E5.64239
G1 X72.963 Y81.588 E6.13716
G1 X74.000 Y81.700 E6.23627
G1 X69.988 Y77.688 E6.77662
G1 X70.900 Y77.675 E6.86372
G1 X74.950 Y81.725 E7.40948
G1 X75.850 Y81.700 E7.49522
G1 X72.075 Y77.925 E8.00372
G1 X72.788 Y77.700 E8.07406
G1 X76.725 Y81.650 E8.60511
G1 X77.600 Y81.588 E8.68833
G1 X73.938 Y77.925 E9.18223
G1 X74.650 Y77.713 E9.25308
G1 X78.475 Y81.538 E9.76846
G1 X79.350 Y81.488 E9.85168
G1 X75.788 Y77.925 E10.33107
G1 X76.575 Y77.788 E10.40733
G1 X80.213 Y81.425 E10.89794
G1 X81.088 Y81.375 E10.98116
G1 X77.138 Y77.438 E11.51252
G1 X77.550 Y76.913 E11.57529
G1 X81.963 Y81.325 E12.16915
G1 X82.838 Y81.275 E12.25238
G1 X80.775 Y79.213 E12.53008
G1 X81.838 Y79.350 E12.63255
G1 X83.700 Y81.213 E12.88406
G1 X84.575 Y81.163 E12.96728
G1 X82.775 Y79.363 E13.20930
G1 X83.675 Y79.338 E13.29480
G1 X85.450 Y81.113 E13.53345
G1 X86.325 Y81.050 E13.61667
G1 X84.375 Y79.113 E13.87846
G1 X85.025 Y78.838 E13.94552
G1 X87.188 Y81.000 E14.23772
G1 X88.063 Y80.950 E14.32095
G1 X86.613 Y79.500 E14.51661
G1 X87.563 Y79.525 E14.60726
G1 X88.938 Y80.900 E14.79225
G1 X89.813 Y80.838 E14.87547
G1 X88.350 Y79.388 E15.07145
G1 X89.013 Y79.113 E15.13901
G1 X90.688 Y80.788 E15.36409
G1 X91.550 Y80.738 E15.44731
G1 X90.188 Y79.363 E15.63182
G1 X91.113 Y79.363 E15.71987
G1 X92.425 Y80.688 E15.89734
G1 X93.300 Y80.625 E15.98057
G1 X92.025 Y79.363 E16.15142
G1 X92.950 Y79.350 E16.23917
G1 X94.175 Y80.575 E16.40341
G1 X95.038 Y80.525 E16.48663
G1 X93.913 Y79.388 E16.63961
G1 X94.738 Y79.288 E16.71946
G1 X95.913 Y80.463 E16.87767
G1 X96.750 Y80.375 E16.95751
G1 X95.363 Y78.988 E17.14475
G1 F900.000 E13.14475
G92 E0
G1 X78.125 Y76.563 F6000.000
G1 F900.000 E4.00000
G1 X77.900 Y76.338 F300.000 E4.03102
G1 X66.138 Y78.575 F6000.000
G1 X65.975 Y78.100 F300.000 E4.07366
G1 X65.225 Y77.800 E4.14218
G1 X63.275 Y75.338 F6000.000
G1 X63.313 Y74.925 F300.000 E4.16417
G1 X64.000 Y73.888 E4.22903
G1 F900.000 E0.22903
G92 E0
G1 X65.613 Y71.150 F6000.000
G1 F900.000 E4.00000
G1 X66.100 Y70.950 F300.000 E4.04521
G1 X66.150 Y71.013
G1 X66.113 Y70.813 E4.06296
G1 X67.988 Y70.400 F6000.000
G1 X68.650 Y70.363 F300.000 E4.15792
G1 X68.850 Y71.338
G1 X68.650 Y70.363 E4.29973
G1 X69.800 Y69.175 E4.53325
G1 X71.150 Y68.538 F6000.000
G1 X71.938 Y68.125 F300.000 E4.64053
G1 F900.000 E0.64053
G92 E0
G1 X73.038 Y70.875 F6000.000
G1 F900.000 E4.00000
G1 X72.488 Y71.325 F300.000 E4.06502
G1 X71.625 Y71.238 E4.14521
G1 X72.188 Y72.125 F6000.000
G1 X72.050 Y72.425 F300.000 E4.18719
G1 X72.300 Y72.675
G1 X72.875 Y72.675 E4.23118
G1 X72.875 Y73.300 E4.27889
G1 X72.300 Y73.300 E4.32288
G1 X72.300 Y72.938 E4.35048
G1 X72.850 Y74.025 F6000.000
G1 X72.850 Y74.875 F300.000 E4.47244
G1 F900.000 E0.47244
G92 E0
G1 X75.188 Y70.663 F6000.000
G1 F900.000 E4.00000
G1 X74.088 Y69.563 F300.000 E4.14588
G1 X73.738 Y68.300 E4.26917
G1 X75.938 Y70.500 E4.56151
G1 X76.938 Y70.588 E4.65598
G1 X74.625 Y68.275 E4.96403
G1 X75.538 Y68.275 E5.05034
G1 X77.575 Y70.313 E5.32184
G1 X78.413 Y70.225 E5.40082
G1 X76.513 Y68.325 E5.65395
G1 X77.488 Y68.388 E5.74606
G1 X80.163 Y71.063 E6.10233
G1 X80.850 Y70.838 E6.17076
G1 X78.463 Y68.450 E6.48903
G1 X79.438 Y68.513 E6.58114
G1 X81.650 Y70.725 E6.87599
G1 X82.550 Y70.700 E6.96048
G1 X80.413 Y68.563 E7.24479
G1 X81.388 Y68.625 E7.33689
G1 X83.425 Y70.663 E7.60839
G1 X84.975 Y71.288 F6000.000
G1 X82.363 Y68.688 F300.000 E7.95578
G1 X83.338 Y68.750 E8.04788
G1 X85.525 Y70.938 E8.33951
G1 X86.175 Y70.663 E8.40555
G1 X84.313 Y68.813 E8.65345
G1 X85.288 Y68.863 E8.74555
G1 X86.963 Y70.538 E8.96782
G1 X87.900 Y70.563 E9.05697
G1 X86.263 Y68.925 E9.27525
G1 X87.238 Y68.988 E9.36735
G1 X90.325 Y72.075 E9.77841
G1 X90.675 Y71.513 E9.84102
G1 X88.213 Y69.050 E10.16899
G1 X89.200 Y69.100 E10.26110
G1 X91.125 Y71.038 E10.51765
G1 X91.750 Y70.738 E10.58260
G1 X90.175 Y69.163 E10.79242
G1 X91.150 Y69.225 E10.88452
G1 X92.625 Y70.700 E11.08102
G1 X93.100 Y69.350 E11.21634
G1 X95.075 Y71.313 E11.47918
G1 X94.625 Y71.788 E11.54020
G1 X92.125 Y69.288 E11.87322
G1 X94.075 Y69.400 F6000.000
G1 X95.613 Y70.950 F300.000 E12.07839
G1 X96.263 Y70.675 E12.14426
G1 X95.050 Y69.463 E12.30527
G1 X96.025 Y69.525 E12.39737
G1 X97.000 Y70.500 E12.52778
G1 F900.000 E8.52778
G92 E0
G1 X77.913 Y74.938 F6000.000
G1 F900.000 E4.00000
G1 X77.913 Y75.563 F300.000 E4.05294
G1 X77.438 Y75.563 E4.09314
G1 X77.438 Y74.938 E4.14608
G1 X77.625 Y74.938 E4.16175
G1 F900.000 E0.16175
G92 E0
G1 X84.700 Y75.313 F6000.000
G1 F900.000 E4.00000
G1 X85.025 Y75.313 F300.000 E4.02706
G1 X85.025 Y75.750 E4.06456
G1 X84.700 Y75.750 E4.09162
G1 X84.700 Y75.600 E4.10458
G1 X84.700 Y76.800 F6000.000
G1 X84.750 Y77.488 F300.000 E4.14107
G1 F900.000 E0.14107
G92 E0
G1 X87.213 Y74.013 F6000.000
G1 F900.000 E4.00000
G1 X87.213 Y73.738 F300.000 E4.01663
G1 X87.588 Y73.738 E4.03925
G1 X87.588 Y74.013 E4.05588
G1 X87.413 Y74.013 E4.06593
G1 X90.175 Y73.875 F6000.000
G1 X89.875 Y75.325 F300.000 E4.27647
G1 X90.225 Y73.213 F6000.000
G1 X90.225 Y72.925 F300.000 E4.29372
G1 X90.300 Y72.925 E4.29773
G1 X90.300 Y73.063 E4.30643
G1 F900.000 E0.30643
G92 E0
G1 X94.163 Y72.675 F6000.000
G1 F900.000 E4.00000
G1 X94.200 Y72.950 F300.000 E4.01500
G1 X94.175 Y73.363
G1 X94.263 Y73.363 E4.02031
G1 X94.263 Y73.563 E4.03235
G1 X94.188 Y73.563 E4.03712
G1 X94.113 Y74.425
G1 X95.150 Y75.450 E4.19864
G1 X97.125 Y75.038 F6000.000
G1 X97.288 Y75.238 F300.000 E4.23336
; infill_end
; perimeter_start
G1 F900.000 E0.23336
G92 E0
G1 X82.563 Y73.413 F6000.000
G1 F900.000 E4.00000
G1 X82.550 Y73.788 F300.000 E4.03447
G1 X82.550 Y76.625 E4.29666
G1 X82.350 Y76.638 E4.31548
G1 X81.850 Y76.613 E4.36154
G1 X81.600 Y76.588 E4.38502
G1 X81.250 Y76.513 E4.41865
G1 X81.100 Y76.413 E4.43463
G1 X81.000 Y76.300 E4.44855
G1 X80.900 Y76.150 E4.46584
G1 X80.813 Y75.913 E4.48841
G1 X80.738 Y75.638 E4.51480
G1 X80.700 Y75.300 E4.54623
G1 X80.700 Y74.900 E4.58346
G1 X80.725 Y74.538 E4.61723
G1 X80.775 Y74.325 E4.63765
G1 X80.850 Y74.063 E4.66306
G1 X80.988 Y73.813 E4.68968
G1 X81.150 Y73.638 E4.71130
G1 X81.325 Y73.538 E4.73013
G1 X81.500 Y73.488 E4.74721
G1 X81.825 Y73.438 E4.77724
G1 X82.250 Y73.425 E4.81645
; perimeter_end
; infill_start
G1 X81.788 Y74.175
G1 X81.675 Y76.250 E5.11060
; infill_end
G1 F900.000 E1.11060
G92 E0
G1 Z0.650 F6000.000
; Region: 0
; perimeter_start
G1 X75.763 Y67.225
G1 F900.000 E4.00000
G1 X76.763 Y67.288 F540.000 E4.02495
G1 X77.763 Y67.350 E4.07484
G1 X78.763 Y67.425 F600.000 E4.12473
G1 X79.750 Y67.488 F660.000 E4.17462
G1 X80.750 Y67.550 F720.000 E4.22451
G1 X81.750 Y67.613 F780.000 E4.27440
G1 X82.750 Y67.675 F840.000 E4.32429
G1 X99.463 Y68.738 F900.000 E5.15980
G1 X99.625 Y68.775 E5.16830
G1 X99.788 Y68.825 E5.17636
G1 X99.925 Y68.900 E5.18412
G1 X100.050 Y68.988 E5.19168
G1 X100.150 Y69.088 E5.19918
G1 X100.250 Y69.213 E5.20679
G1 X100.325 Y69.338 E5.21459
G1 X100.388 Y69.500 E5.22279
G1 X100.425 Y69.663 E5.23138
G1 X100.450 Y69.838 E5.24044
G1 X100.450 Y80.150 E5.75440
G1 X100.425 Y80.325 E5.76347
G1 X100.388 Y80.488 E5.77205
G1 X100.325 Y80.650 E5.78025
G1 X100.250 Y80.775 E5.78805
G1 X100.150 Y80.900 E5.79566
G1 X100.050 Y81.000 E5.80317
G1 X99.925 Y81.088 E5.81073
G1 X99.788 Y81.163 E5.81848
G1 X99.625 Y81.213 E5.82654
G1 X99.463 Y81.250 E5.83504
G1 X75.675 Y82.763 E7.02421
G1 X74.925 Y82.775 E7.06191
G1 X73.888 Y82.738 E7.11365
G1 X73.138 Y82.675 E7.15132
G1 X72.300 Y82.538 E7.19340
G1 X71.650 Y82.413 E7.22610
G1 X70.863 Y82.213 E7.26684
G1 X69.975 Y81.925 E7.31354
G1 X69.238 Y81.638 E7.35268
G1 X68.513 Y81.313 E7.39224
G1 X68.075 Y81.100 E7.41683
G1 X67.513 Y80.788 E7.44924
G1 X66.975 Y80.463 E7.48007
G1 X66.463 Y80.113 E7.51121
G1 X65.750 Y79.600 E7.55502
G1 X65.275 Y79.200 E7.58578
G1 X64.588 Y78.575 E7.63210
G1 X64.163 Y78.150 E7.66229
G1 X63.738 Y77.688 E7.69369
G1 X63.263 Y77.100 E7.73128
G1 X62.725 Y76.375 E7.77630
G1 X62.375 Y75.850 E7.80755
G1 X62.075 Y75.350 E7.83699
G1 X62.025 Y75.213 E7.84419
G1 X61.988 Y75.050 E7.85275
G1 X61.988 Y74.938 E7.85803
G1 X62.013 Y74.813 E7.86423
G1 X62.100 Y74.600 E7.87600
G1 X62.363 Y74.163 E7.90171
G1 X62.800 Y73.513 E7.94059
G1 X63.400 Y72.700 E7.99097
G1 X64.125 Y71.888 E8.04541
G1 X64.575 Y71.425 E8.07732
G1 X65.138 Y70.900 E8.11578
G1 X65.613 Y70.500 E8.14673
G1 X66.100 Y70.125 E8.17775
G1 X66.725 Y69.688 E8.21532
G1 X67.250 Y69.363 E8.24649
G1 X68.025 Y68.925 E8.29097
G1 X68.738 Y68.563 E8.33055
G1 X68.763 Y68.563 E8.33175
G1 X69.325 Y68.313 F840.000 E8.36288
G1 X69.688 Y68.175 E8.38164
G1 X70.075 Y68.025 F780.000 E8.40282
G1 X70.625 Y67.850 E8.43153
G1 X70.850 Y67.788 F720.000 E8.44304
G1 X71.600 Y67.600 E8.48142
G1 X71.725 Y67.563 F660.000 E8.48834
G1 X72.575 Y67.400 E8.53131
G1 X72.700 Y67.375 F600.000 E8.53740
G1 X73.288 Y67.300 E8.56697
G1 X73.563 Y67.275 E8.58120
G1 X73.825 Y67.250 F540.000 E8.59403
G1 X74.425 Y67.213 E8.62431
G1 X74.563 Y67.213 E8.63109
G1 X75.038 Y67.213 E8.64294
G1 X75.563 Y67.225 E8.65603
G1 X75.788 Y66.825
G1 X76.775 Y66.888 E8.68098
G1 X77.775 Y66.950 E8.73087
G1 X78.775 Y67.025 F600.000 E8.78076
G1 X79.775 Y67.088 F660.000 E8.83065
G1 X80.775 Y67.150 F720.000 E8.88054
G1 X81.775 Y67.213 F780.000 E8.93043
G1 X82.763 Y67.275 F840.000 E8.98032
G1 X99.513 Y68.338 F900.000 E9.81749
G1 X99.738 Y68.388 E9.82864
G1 X99.938 Y68.463 E9.83946
G1 X100.125 Y68.550 E9.85005
G1 X100.300 Y68.675 E9.86051
G1 X100.450 Y68.813 E9.87092
G1 X100.575 Y68.988 E9.88141
G1 X100.688 Y69.163 E9.89203
G1 X100.763 Y69.375 E9.90294
G1 X100.825 Y69.588 E9.91415
G1 X100.850 Y69.813 E9.92571
G1 X100.850 Y80.175 E10.44212
G1 X100.825 Y80.400 E10.45368
G1 X100.763 Y80.613 E10.46489
G1 X100.688 Y80.825 E10.47580
G1 X100.575 Y81.000 E10.48642
G1 X100.450 Y81.175 E10.49691
G1 X100.300 Y81.313 E10.50732
G1 X100.125 Y81.438 E10.51778
G1 X99.938 Y81.525 E10.52837
G1 X99.738 Y81.600 E10.53919
G1 X99.513 Y81.650 E10.55034
G1 X75.688 Y83.163 E11.74124
G1 X74.913 Y83.175 E11.77994
G1 X73.863 Y83.138 E11.83288
G1 X73.088 Y83.063 E11.87170
G1 X72.225 Y82.938 E11.91482
G1 X71.563 Y82.800 E11.94851
G1 X70.750 Y82.588 E11.99032
G1 X69.838 Y82.300 E12.03818
G1 X69.088 Y82.013 E12.07843
G1 X68.350 Y81.675 E12.11895
G1 X67.888 Y81.450 E12.14437
G1 X67.313 Y81.125 E12.17758
G1 X66.763 Y80.800 E12.20924
G1 X66.225 Y80.450 E12.24131
G1 X65.513 Y79.913 E12.28612
G1 X65.013 Y79.513 E12.31791
G1 X64.313 Y78.863 E12.36528
G1 X63.875 Y78.425 E12.39638
G1 X63.438 Y77.950 E12.42865
G1 X62.950 Y77.350 E12.46728
G1 X62.400 Y76.600 E12.51338
G1 X62.038 Y76.063 E12.54558
G1 X61.725 Y75.525 E12.57688
G1 X61.638 Y75.338 E12.58741
G1 X61.588 Y75.088 E12.59990
G1 X61.588 Y74.913 E12.60900
G1 X61.613 Y74.713 E12.61865
G1 X61.688 Y74.538 E12.62825
G1 X61.750 Y74.413 E12.63542
G1 X62.025 Y73.950 E12.66230
G1 X62.463 Y73.275 E12.70208
G1 X63.100 Y72.450 E12.75395
G1 X63.488 Y71.988 E12.78398
G1 X63.838 Y71.613 E12.80984
G1 X64.288 Y71.138 E12.84262
G1 X64.875 Y70.600 E12.88202
G1 X65.363 Y70.188 E12.91385
G1 X65.863 Y69.800 E12.94576
G1 X66.500 Y69.363 E12.98426
G1 X67.038 Y69.013 E13.01640
G1 X67.838 Y68.563 E13.06194
G1 X68.563 Y68.200 E13.10256
G1 X68.763 Y68.125 E13.11336
G1 X69.175 Y67.938 F840.000 E13.13587
G1 X69.700 Y67.750 E13.16325
G1 X69.950 Y67.650 F780.000 E13.17684
G1 X70.638 Y67.425 E13.21314
G1 X70.738 Y67.400 F720.000 E13.21818
G1 X71.613 Y67.175 E13.26303
G1 X71.638 Y67.175 F660.000 E13.26467
G1 X72.588 Y66.988 E13.31292
G1 X72.625 Y66.988 F600.000 E13.31489
G1 X73.238 Y66.900 E13.34537
G1 X73.588 Y66.875 E13.36281
G1 X73.788 Y66.850 F540.000 E13.37320
G1 X74.413 Y66.813 E13.40427
G1 X74.588 Y66.813 E13.41270
G1 X75.038 Y66.800 E13.42416
G1 X75.588 Y66.825 E13.43764
G1 X75.963 Y67.188
; perimeter_end
; infill_start
G1 X72.575 Y68.138 F6000.000
G1 X73.088 Y67.625 F2100.000 E13.47487
G1 X73.750 Y67.550 E13.51034
G1 X72.875 Y68.438 E13.57582
G1 X73.163 Y68.738 E13.59788
G1 X74.375 Y67.525 E13.68805
G1 X75.000 Y67.500 E13.72040
G1 X73.438 Y69.063 E13.83626
G1 X73.625 Y69.475 E13.85971
G1 X75.575 Y67.513 E14.00451
G1 X76.138 Y67.550 E14.03415
G1 X73.788 Y69.900 E14.20859
G1 X73.950 Y70.325 E14.23273
G1 X76.700 Y67.588 E14.43638
G1 X77.263 Y67.613 E14.46575
G1 X74.113 Y70.763 E14.69863
G1 X74.513 Y70.950 E14.72195
G1 X77.813 Y67.650 E14.96660
G1 X78.375 Y67.688 E14.99597
G1 X75.125 Y70.938 E15.23687
G1 X75.738 Y70.925 E15.26884
G1 X78.938 Y67.725 E15.50599
G1 X79.488 Y67.763 E15.53536
G1 X76.288 Y70.963 E15.77291
G1 X76.763 Y71.088 E15.79849
G1 X80.050 Y67.800 E16.04246
G1 X80.613 Y67.838 E16.07183
G1 X77.750 Y70.700 E16.28411
G1 X78.388 Y70.650 E16.31795
G1 X81.175 Y67.863 E16.52396
G1 X81.725 Y67.900 E16.55333
G1 X78.888 Y70.750 E16.76403
G1 X79.288 Y70.938 E16.78730
G1 X82.288 Y67.938 E17.00996
G1 X82.850 Y67.975 E17.03933
G1 X79.638 Y71.188 E17.27727
G1 X79.988 Y71.425 E17.29969
G1 X83.400 Y68.013 E17.55291
G1 X83.963 Y68.050 E17.58228
G1 X80.700 Y71.313 E17.82413
G1 X81.450 Y71.163 E17.86381
G1 X84.525 Y68.088 E18.09206
G1 X85.088 Y68.113 E18.12143
G1 X82.088 Y71.113 E18.34389
G1 X82.675 Y71.125 E18.37469
G1 X85.638 Y68.150 E18.59505
G1 X86.200 Y68.188 E18.62441
G1 X83.300 Y71.088 E18.83967
G1 X83.850 Y71.138 E18.86871
G1 X86.763 Y68.225 E19.08446
G1 X87.313 Y68.263 E19.11382
G1 X84.275 Y71.300 E19.33899
G1 X84.713 Y71.463 E19.36319
G1 X87.875 Y68.300 E19.59777
G1 X88.438 Y68.338 E19.62714
G1 X85.250 Y71.525 E19.86349
G1 X86.288 Y71.075 F6000.000
G1 X88.988 Y68.363 F2100.000 E20.06401
G1 X89.550 Y68.400 E20.09338
G1 X87.000 Y70.950 E20.28241
G1 X87.600 Y70.950 E20.31361
G1 X90.113 Y68.438 E20.49995
G1 X90.675 Y68.475 E20.52932
G1 X88.113 Y71.025 E20.71881
G1 X88.575 Y71.163 E20.74389
G1 X91.225 Y68.513 E20.94083
G1 X91.788 Y68.550 E20.97020
G1 X88.963 Y71.375 E21.17965
G1 X89.338 Y71.600 E21.20235
G1 X92.350 Y68.588 E21.42582
G1 X92.900 Y68.613 E21.45518
G1 X89.700 Y71.825 E21.69267
G1 X90.075 Y72.050 E21.71537
G1 X93.463 Y68.650 E21.96687
G1 X94.025 Y68.688 E21.99624
G1 X91.300 Y71.413 E22.19846
G1 X92.213 Y71.088
G1 X94.588 Y68.725 E22.37403
G1 X95.138 Y68.763 E22.40340
G1 X92.738 Y71.163 E22.58145
G1 X93.150 Y71.350 E22.60498
G1 X95.700 Y68.800 E22.79420
G1 X96.263 Y68.838 E22.82356
G1 X93.525 Y71.563 E23.02597
G1 X93.913 Y71.775 E23.04888
G1 X96.813 Y68.863 E23.26449
G1 X97.375 Y68.900 E23.29385
G1 X94.288 Y71.988 E23.52267
G1 X94.913 Y71.963 E23.55521
G1 X97.938 Y68.938 E23.77948
G1 X98.500 Y68.975 E23.80885
G1 X96.400 Y71.075 E23.96419
G1 X97.113 Y70.950 E24.00181
G1 X99.050 Y69.013 E24.14608
G1 X99.588 Y69.075 E24.17414
G1 X97.700 Y70.963 E24.31387
G1 X98.225 Y71.025 E24.34155
G1 X99.950 Y69.300 E24.46937
G1 X100.138 Y69.713 E24.49281
G1 X98.675 Y71.163 E24.60095
G1 X99.088 Y71.350 E24.62449
G1 X100.163 Y70.288 E24.70388
G1 X100.163 Y70.875 E24.73506
G1 X99.450 Y71.588 E24.78759
G1 X99.800 Y71.825 E24.81003
G1 X100.163 Y71.475 E24.83630
G1 X99.875 Y72.100
M106 S255.000
G1 X95.038 Y72.100 F600.000 E25.06327
G1 X95.538 Y71.725 E25.09270
G1 X99.313 Y71.725 E25.26999
G1 X98.600 Y71.338 E25.30777
G1 X96.200 Y71.338 E25.42081
M107
G1 X94.100 Y72.100 F6000.000
M106 S255.000
G1 X90.550 Y72.100 F600.000 E25.58807
G1 X91.163 Y71.725 E25.62204
G1 X93.425 Y71.725 E25.72858
G1 X92.688 Y71.338 E25.76789
G1 X91.863 Y71.338 E25.80661
M107
G1 X88.500 Y71.338 F6000.000
M106 S255.000
G1 X86.088 Y71.338 F600.000 E25.91996
M107
G1 X83.863 Y71.338 F6000.000
M106 S255.000
G1 X81.513 Y71.338 F600.000 E26.03043
M107
G1 X78.913 Y70.963 F6000.000
M106 S255.000
G1 X77.538 Y70.963 F600.000 E26.09522
G1 X65.100 Y71.338 E26.68009
G1 X79.538 Y71.338 E27.35881
G1 X84.875 Y71.725 E27.61038
G1 X64.700 Y71.725 E28.55895
G1 X89.175 Y71.725 E29.71000
G1 X85.263 Y71.725 E29.89409
G1 X64.325 Y72.100 E30.87866
G1 X89.800 Y72.100 E32.07653
G1 X100.163 Y72.475 E32.56386
G1 X63.988 Y72.475 E34.26436
G1 X63.663 Y72.863 E34.28808
G1 X100.163 Y72.863 E36.00419
G1 X100.163 Y73.238 E36.02204
G1 X63.375 Y73.238 E37.75183
G1 X63.088 Y73.613 E37.77419
G1 X100.163 Y73.613 E39.51748
G1 X100.163 Y74.000 E39.53532
G1 X62.825 Y74.000 E41.29072
G1 X62.575 Y74.375 E41.31205
G1 X100.163 Y74.375 E43.07913
G1 X100.163 Y74.750 E43.09698
G1 X62.350 Y74.750 E44.87471
G1 X62.313 Y75.138 E44.89267
G1 X100.163 Y75.138 E46.67247
G1 X100.163 Y75.513 E46.69031
G1 X62.525 Y75.513 E48.46007
G1 X62.763 Y75.900 E48.48117
G1 X100.163 Y75.900 E50.23967
G1 X100.163 Y76.275 E50.25751
G1 X63.013 Y76.275 E52.00397
G1 X78.488 Y76.650 E52.73148
G1 X100.163 Y76.650 E53.75065
G1 X100.163 Y77.038 E53.76849
G1 X78.813 Y77.038 E54.77206
G1 X79.150 Y77.413 E54.79576
G1 X100.163 Y77.413 E55.78373
G1 X100.163 Y77.788 E55.80157
G1 X79.475 Y77.788 E56.77394
G1 X79.900 Y78.175 E56.80058
G1 X99.600 Y78.175 E57.72718
G1 X84.200 Y78.550 E58.45201
G1 X80.650 Y78.550 E58.61885
M107
G1 X85.675 Y78.550 F6000.000
M106 S255.000
G1 X94.975 Y78.550 F600.000 E59.05629
G1 X95.763 Y78.550
G1 X98.975 Y78.550 E59.20769
M107
G1 X77.538 Y76.650 F6000.000
M106 S255.000
G1 X63.300 Y76.650 F600.000 E59.87715
G1 X63.588 Y77.038 E59.89960
G1 X69.938 Y77.038 E60.19814
M107
G1 X71.000 Y77.038 F6000.000
M106 S255.000
G1 X76.738 Y77.038 F600.000 E60.46785
M107
G1 X73.988 Y70.963 F6000.000
M106 S255.000
G1 X65.525 Y70.963 F600.000 E60.86597
G1 X65.988 Y70.588 E60.89424
G1 X73.850 Y70.588 E61.26358
G1 X73.700 Y70.200 E61.28269
G1 X66.500 Y70.200 E61.62109
G1 X67.063 Y69.825 E61.65285
G1 X73.550 Y69.825 E61.95813
G1 X73.413 Y69.438 E61.97724
G1 X67.700 Y69.438 E62.24598
G1 X68.400 Y69.063 E62.28350
G1 X73.213 Y69.063 E62.50969
G1 X72.850 Y68.688 E62.53425
G1 X69.213 Y68.688 E62.70542
M107
G1 X70.175 Y68.300 F6000.000
M106 S255.000
G1 X72.488 Y68.300 F600.000 E62.81374
G1 X72.125 Y67.925 E62.83845
G1 X71.488 Y67.925 E62.86807
M107
G1 X64.363 Y77.413 F6000.000
M106 S255.000
G1 X63.900 Y77.413 F600.000 E62.88958
M107
G1 X65.113 Y77.500 F6000.000
G1 X64.525 Y78.100 F2100.000 E62.93337
G1 X64.825 Y78.388 E62.95537
G1 X65.713 Y77.500 E63.02118
G1 X66.300 Y77.500 E63.05223
G1 X65.138 Y78.675 E63.13896
G1 X65.450 Y78.963 E63.16098
G1 X66.900 Y77.513 E63.26863
G1 X67.525 Y77.475 E63.30173
G1 X65.775 Y79.225 E63.43202
G1 X66.100 Y79.488 E63.45419
G1 X68.300 Y77.288 E63.61733
G1 X68.738 Y77.438 E63.64166
G1 X66.450 Y79.738 E63.81188
G1 X66.788 Y79.988 E63.83421
G1 X69.288 Y77.488 E64.01904
G1 X70.313 Y77.050 F6000.000
G1 X67.150 Y80.225 F2100.000 E64.25368
G1 X67.525 Y80.450 E64.27634
G1 X70.825 Y77.150 E64.52089
G1 X71.200 Y77.363 E64.54378
G1 X67.900 Y80.663 E64.78836
G1 X68.288 Y80.863 E64.81139
G1 X71.675 Y77.488 E65.06164
G1 X72.300 Y77.450 E65.09479
G1 X68.688 Y81.063 E65.36291
G1 X69.088 Y81.250 E65.38646
G1 X73.038 Y77.300 E65.67884
G1 X73.463 Y77.475 E65.70260
G1 X69.513 Y81.425 E65.99506
G1 X69.938 Y81.588 E66.01914
G1 X74.050 Y77.488 E66.32350
G1 X74.863 Y77.263 E66.36805
G1 X70.388 Y81.738 E66.70029
G1 X70.838 Y81.888 E66.72504
G1 X75.325 Y77.400 E67.05752
G1 X75.813 Y77.500 E67.08370
G1 X71.300 Y82.013 E67.41778
G1 X71.775 Y82.138 E67.44342
G1 X76.600 Y77.313 E67.80063
G1 X77.738 Y76.763 F6000.000
G1 X72.263 Y82.238 F2100.000 E68.20586
G1 X72.775 Y82.313 E68.23300
G1 X78.325 Y76.763 E68.64433
G1 X78.613 Y77.088 E68.66638
G1 X73.300 Y82.388 E69.05961
G1 X73.838 Y82.438 E69.08807
G1 X78.888 Y77.400 E69.46177
G1 X79.163 Y77.713 E69.48382
G1 X74.413 Y82.463 E69.83586
G1 X74.988 Y82.488 E69.86608
G1 X79.438 Y78.025 E70.19619
G1 X79.763 Y78.300 E70.21825
G1 X75.588 Y82.475 E70.52699
G1 X76.225 Y82.438 E70.56013
G1 X80.125 Y78.538 E70.84904
G1 X80.538 Y78.713 E70.87275
G1 X76.863 Y82.388 E71.14552
G1 X77.488 Y82.350 E71.17883
G1 X81.013 Y78.838 E71.43951
G1 X81.538 Y78.913 E71.46703
G1 X78.125 Y82.313 E71.71926
G1 X78.763 Y82.275 E71.75256
G1 X82.100 Y78.938 E71.99950
G1 X82.688 Y78.950 E72.03030
G1 X79.400 Y82.238 E72.27379
G1 X80.038 Y82.188 E72.30709
G1 X83.275 Y78.950 E72.54713
G1 X84.000 Y78.813 E72.58591
G1 X80.663 Y82.150 E72.83289
G1 X81.300 Y82.113 E72.86620
G1 X84.900 Y78.513 E73.13317
G1 X85.400 Y78.613 E73.15950
G1 X81.938 Y82.075 E73.41593
G1 X82.575 Y82.025 E73.44923
G1 X85.775 Y78.825 E73.68660
G1 X86.200 Y78.988 E73.71076
G1 X83.200 Y81.988 E73.93310
G1 X83.838 Y81.950 E73.96640
G1 X86.700 Y79.088 E74.17862
G1 X87.263 Y79.113 E74.20800
G1 X84.475 Y81.913 E74.41470
G1 X85.113 Y81.863 E74.44800
G1 X87.925 Y79.050 E74.65647
G1 X88.800 Y78.763 E74.70489
G1 X85.738 Y81.825 E74.93149
G1 X86.375 Y81.788 E74.96480
G1 X89.425 Y78.738 E75.19090
G1 X89.863 Y78.900 E75.21499
G1 X87.013 Y81.750 E75.42591
G1 X87.650 Y81.700 E75.45921
G1 X90.400 Y78.950 E75.66356
G1 X91.000 Y78.950 E75.69482
G1 X88.275 Y81.663 E75.89637
G1 X88.913 Y81.625 E75.92967
G1 X91.600 Y78.938 E76.12844
G1 X92.188 Y78.938 E76.15970
G1 X89.550 Y81.588 E76.35567
G1 X90.188 Y81.538 E76.38898
G1 X92.788 Y78.938 E76.58216
G1 X93.388 Y78.938 E76.61342
G1 X90.813 Y81.500 E76.80381
G1 X91.450 Y81.463 E76.83712
G1 X93.950 Y78.963 E77.02197
G1 X94.613 Y78.888 E77.05734
G1 X92.088 Y81.425 E77.24489
G1 X92.725 Y81.388 E77.27819
G1 X95.463 Y78.638 E77.48131
G1 X95.888 Y78.800 E77.50543
G1 X93.350 Y81.338 E77.69344
G1 X93.988 Y81.300 E77.72674
G1 X96.325 Y78.963 E77.89971
G1 X96.813 Y79.075 E77.92585
G1 X94.625 Y81.263 E78.08794
G1 X95.263 Y81.225 E78.12125
G1 X97.363 Y79.113 E78.27724
G1 X98.013 Y79.063 E78.31107
G1 X95.888 Y81.175 E78.46777
G1 X96.525 Y81.138 E78.50107
G1 X98.838 Y78.825 E78.67236
G1 X100.163 Y78.100 F6000.000
G1 X97.163 Y81.100 F2100.000 E78.89438
G1 X97.800 Y81.063 E78.92768
G1 X100.163 Y78.700 E79.10270
G1 X100.163 Y79.288 E79.13381
G1 X98.425 Y81.013 E79.26183
G1 X99.063 Y80.975 E79.29513
G1 X100.163 Y79.888 E79.37615
; infill_end
G1 F900.000 E75.37615
G92 E0
G1 Z0.950 F6000.000
; Region: 0
; perimeter_start
G1 X100.600 Y73.800
G1 F900.000 E4.00000
G1 X95.213 Y73.800 F900.000 E4.26843
G1 X95.213 Y76.188 E4.38806
G1 X100.600 Y76.188 E4.65649
G1 X100.600 Y80.300 E4.86139
G1 X100.575 Y80.488 E4.87048
G1 X100.525 Y80.650 E4.87908
G1 X100.475 Y80.800 E4.88719
G1 X100.388 Y80.938 E4.89501
G1 X100.300 Y81.050 E4.90259
G1 X100.188 Y81.163 E4.91014
G1 X100.063 Y81.250 E4.91767
G1 X99.925 Y81.313 E4.92538
G1 X99.775 Y81.375 E4.93352
G1 X99.613 Y81.400 E4.94200
G1 X75.700 Y82.975 E6.13742
G1 X75.075 Y83.000 E6.16848
G1 X74.475 Y82.988 E6.19872
G1 X73.875 Y82.963 E6.22831
G1 X73.000 Y82.875 E6.27244
G1 X72.288 Y82.763 E6.30830
G1 X71.588 Y82.625 E6.34374
G1 X71.050 Y82.488 E6.37119
G1 X70.388 Y82.300 E6.40617
G1 X69.875 Y82.125 E6.43290
G1 X69.113 Y81.838 E6.47343
G1 X68.388 Y81.513 E6.51336
G1 X67.675 Y81.150 E6.55286
G1 X66.988 Y80.763 E6.59217
G1 X66.438 Y80.413 E6.62486
G1 X65.913 Y80.038 E6.65676
G1 X65.300 Y79.563 E6.69557
G1 X64.813 Y79.150 E6.72778
G1 X64.238 Y78.625 E6.76644
G1 X63.700 Y78.063 E6.80523
G1 X63.275 Y77.575 E6.83753
G1 X62.863 Y77.075 E6.86988
G1 X62.475 Y76.550 E6.90276
G1 X62.025 Y75.888 E6.94225
G1 X61.700 Y75.338 E6.97424
G1 X61.650 Y75.213 E6.98117
G1 X61.625 Y75.088 E6.98724
G1 X61.613 Y74.975 E6.99304
G1 X61.625 Y74.863 E6.99892
G1 X61.700 Y74.650 E7.00958
G1 X62.025 Y74.113 E7.04084
G1 X62.538 Y73.350 E7.08735
G1 X62.850 Y72.925 E7.11318
G1 X63.350 Y72.325 E7.15237
G1 X63.875 Y71.738 E7.19129
G1 X64.325 Y71.288 E7.22341
G1 X64.900 Y70.763 E7.26217
G1 X65.388 Y70.350 E7.29453
G1 X66.013 Y69.875 E7.33330
G1 X66.663 Y69.438 E7.37225
G1 X67.100 Y69.163 E7.39796
G1 X67.900 Y68.713 E7.44371
G1 X68.613 Y68.375 E7.48345
G1 X69.225 Y68.100 E7.51672
G1 X69.863 Y67.863 E7.55050
G1 X70.900 Y67.538 E7.60516
G1 X71.725 Y67.338 E7.64725
G1 X72.425 Y67.200 E7.68277
G1 X72.988 Y67.113 E7.71148
G1 X73.575 Y67.050 E7.74054
G1 X74.463 Y67.000 E7.78532
G1 X75.063 Y66.988 E7.81533
G1 X75.850 Y67.013 E7.85412
G1 X99.613 Y68.588 E9.04217
G1 X99.775 Y68.613 E9.05065
G1 X99.925 Y68.675 E9.05879
G1 X100.063 Y68.738 E9.06650
G1 X100.188 Y68.825 E9.07403
G1 X100.300 Y68.938 E9.08158
G1 X100.388 Y69.050 E9.08915
G1 X100.475 Y69.188 E9.09698
G1 X100.525 Y69.338 E9.10508
G1 X100.575 Y69.500 E9.11368
G1 X100.600 Y69.688 E9.12278
G1 X100.600 Y73.600 E9.31771
G1 X101.000 Y74.200
G1 X95.613 Y74.200 E9.58616
G1 X95.613 Y75.788 E9.66589
G1 X101.000 Y75.788 E9.93433
G1 X101.000 Y80.325 E10.16043
G1 X100.963 Y80.550 E10.17197
G1 X100.913 Y80.775 E10.18317
G1 X100.825 Y80.975 E10.19403
G1 X100.725 Y81.163 E10.20466
G1 X100.600 Y81.325 E10.21512
G1 X100.438 Y81.475 E10.22556
G1 X100.275 Y81.588 E10.23600
G1 X100.088 Y81.688 E10.24656
G1 X99.875 Y81.763 E10.25739
G1 X99.663 Y81.800 E10.26854
G1 X75.713 Y83.375 E11.46569
G1 X75.075 Y83.400 E11.49754
G1 X74.450 Y83.388 E11.52856
G1 X73.850 Y83.363 E11.55902
G1 X72.950 Y83.263 E11.60415
G1 X72.213 Y83.150 E11.64100
G1 X71.500 Y83.013 E11.67731
G1 X70.950 Y82.875 E11.70558
G1 X70.263 Y82.675 E11.74135
G1 X69.738 Y82.500 E11.76892
G1 X68.963 Y82.213 E11.81043
G1 X68.213 Y81.875 E11.85141
G1 X67.488 Y81.500 E11.89194
G1 X66.788 Y81.100 E11.93221
G1 X66.213 Y80.738 E11.96580
G1 X65.675 Y80.363 E11.99859
G1 X65.050 Y79.875 E12.03833
G1 X64.538 Y79.450 E12.07148
G1 X63.963 Y78.913 E12.11111
G1 X63.413 Y78.338 E12.15086
G1 X62.963 Y77.838 E12.18406
G1 X62.550 Y77.325 E12.21727
G1 X62.150 Y76.775 E12.25104
G1 X61.688 Y76.100 E12.29152
G1 X61.338 Y75.513 E12.32544
G1 X61.263 Y75.338 E12.33543
G1 X61.225 Y75.150 E12.34491
G1 X61.213 Y74.963 E12.35420
G1 X61.238 Y74.775 E12.36353
G1 X61.288 Y74.588 E12.37330
G1 X61.338 Y74.475 E12.37976
G1 X61.675 Y73.900 E12.41274
G1 X62.213 Y73.113 E12.46027
G1 X62.538 Y72.688 E12.48700
G1 X63.038 Y72.063 E12.52714
G1 X63.575 Y71.463 E12.56703
G1 X64.050 Y71.000 E12.60008
G1 X64.638 Y70.463 E12.63978
G1 X65.138 Y70.038 E12.67307
G1 X65.775 Y69.550 E12.71282
G1 X66.438 Y69.100 E12.75269
G1 X66.888 Y68.825 E12.77929
G1 X67.713 Y68.363 E12.82607
G1 X68.450 Y68.000 E12.86683
G1 X69.075 Y67.738 E12.90103
G1 X69.725 Y67.488 E12.93565
G1 X70.263 Y67.313 E12.96361
G1 X70.800 Y67.150 E12.99186
G1 X71.638 Y66.950 E13.03492
G1 X72.350 Y66.813 E13.07135
G1 X72.938 Y66.725 E13.10086
G1 X73.538 Y66.650 E13.13078
G1 X74.450 Y66.600 E13.17654
G1 X75.075 Y66.588 E13.20748
G1 X75.863 Y66.613 E13.24706
G1 X99.663 Y68.188 E14.43679
G1 X99.875 Y68.225 E14.44793
G1 X100.088 Y68.300 E14.45876
G1 X100.275 Y68.400 E14.46933
G1 X100.438 Y68.513 E14.47976
G1 X100.600 Y68.663 E14.49020
G1 X100.725 Y68.825 E14.50066
G1 X100.825 Y69.013 E14.51129
G1 X100.913 Y69.213 E14.52215
G1 X100.963 Y69.438 E14.53335
G1 X101.000 Y69.663 E14.54490
G1 X101.000 Y74.000 E14.76102
G1 X100.650 Y74.000
; perimeter_end
; infill_start
G1 X100.250 Y73.500
G1 X95.350 Y68.600 F2100.000 E15.12714
G1 X96.000 Y68.638 E15.16108
G1 X100.300 Y72.950 E15.48290
G1 X100.300 Y72.350 E15.51456
G1 X96.638 Y68.688 E15.78846
G1 X97.275 Y68.725 E15.82239
G1 X100.300 Y71.750 E16.04835
G1 X100.300 Y71.150 E16.08001
G1 X97.913 Y68.763 E16.25804
G1 X98.563 Y68.813 E16.29198
G1 X100.300 Y70.550 E16.42207
G1 X100.300 Y69.950 E16.45373
G1 X99.200 Y68.850 E16.53589
G1 X94.713 Y68.550 F6000.000
G1 X99.663 Y73.500 F2100.000 E16.90518
G1 X99.063 Y73.500 E16.93680
G1 X94.075 Y68.513 E17.30926
G1 X93.425 Y68.475 E17.34319
G1 X98.463 Y73.500 E17.71882
G1 X97.863 Y73.500 E17.75044
G1 X92.788 Y68.425 E18.12924
G1 X92.150 Y68.388 E18.16317
G1 X97.263 Y73.500 E18.54514
G1 X96.663 Y73.500 E18.57676
G1 X91.513 Y68.350 E18.96190
G1 X90.863 Y68.300 E18.99583
G1 X96.063 Y73.500 E19.38414
G1 X95.463 Y73.500 E19.41576
G1 X90.225 Y68.263 E19.80724
G1 X89.588 Y68.213 E19.84117
G1 X94.925 Y73.563 E20.24010
G1 X94.925 Y74.163 E20.27173
G1 X88.938 Y68.175 E20.71855
G1 X88.300 Y68.138 E20.75248
G1 X94.925 Y74.750 E21.24719
G1 X94.925 Y75.350 E21.27882
G1 X87.663 Y68.088 E21.82142
G1 X87.013 Y68.050 E21.85535
G1 X94.925 Y75.950 E22.44584
G1 X100.250 Y76.488 F6000.000
G1 X100.300 Y76.538 F2100.000 E22.44994
G1 X100.300 Y77.138 E22.48153
G1 X99.650 Y76.488 E22.53032
G1 X99.050 Y76.488 E22.56195
G1 X100.300 Y77.738 E22.65543
G1 X100.300 Y78.338 E22.68703
G1 X98.450 Y76.488 E22.82520
G1 X97.850 Y76.488 E22.85683
G1 X100.300 Y78.938 E23.03969
G1 X100.300 Y79.538 E23.07129
G1 X97.250 Y76.488 E23.29885
G1 X96.650 Y76.488 E23.33048
G1 X100.300 Y80.138 E23.60273
G1 X100.213 Y80.650 E23.63019
G1 X96.063 Y76.488 E23.94074
G1 X95.463 Y76.488 E23.97237
G1 X99.938 Y80.975 E24.30720
G1 X99.488 Y81.113 E24.33232
G1 X86.375 Y68.000 E25.31159
G1 X85.738 Y67.963 E25.34553
G1 X98.925 Y81.150 E26.33074
G1 X98.363 Y81.188 E26.36047
G1 X85.100 Y67.925 E27.35162
G1 X84.450 Y67.875 E27.38555
G1 X97.800 Y81.225 E28.38263
G1 X97.238 Y81.263 E28.41236
G1 X83.813 Y67.838 E29.41537
G1 X83.175 Y67.788 E29.44931
G1 X96.675 Y81.300 E30.45825
G1 X96.113 Y81.338 E30.48798
G1 X82.525 Y67.750 E31.50285
G1 X81.888 Y67.713 E31.53679
G1 X95.550 Y81.375 E32.55759
G1 X95.000 Y81.413 E32.58733
G1 X81.250 Y67.663 E33.61406
G1 X80.600 Y67.625 E33.64800
G1 X94.438 Y81.450 E34.68067
G1 X93.875 Y81.488 E34.71040
G1 X79.963 Y67.588 E35.74900
G1 X79.325 Y67.538 E35.78294
G1 X93.313 Y81.525 E36.82747
G1 X92.750 Y81.563 E36.85721
G1 X78.688 Y67.500 E37.90767
G1 X78.038 Y67.450 E37.94161
G1 X92.188 Y81.600 E38.99801
G1 X91.625 Y81.638 E39.02774
G1 X77.400 Y67.413 E40.09007
G1 X76.763 Y67.375 E40.12401
G1 X91.063 Y81.675 E41.19227
G1 X90.500 Y81.713 E41.22201
G1 X76.113 Y67.325 E42.29620
G1 X75.488 Y67.300 E42.32943
G1 X89.938 Y81.750 E43.40862
G1 X89.375 Y81.788 E43.43835
G1 X74.875 Y67.288 E44.52113
G1 X74.300 Y67.300 E44.55190
G1 X88.813 Y81.825 E45.63623
G1 X88.250 Y81.863 E45.66596
G1 X73.738 Y67.338 E46.75043
G1 X73.188 Y67.388 E46.77936
G1 X87.688 Y81.900 E47.86258
G1 X87.125 Y81.938 E47.89231
G1 X72.663 Y67.463 E48.97287
G1 X72.150 Y67.550 E49.00016
G1 X86.563 Y81.975 E50.07677
G1 X86.000 Y82.000 E50.10650
G1 X71.663 Y67.663 E51.17822
G1 X71.175 Y67.775 E51.20437
G1 X85.450 Y82.038 E52.27004
G1 X84.888 Y82.075 E52.29977
G1 X70.713 Y67.913 E53.35830
G1 X70.250 Y68.050 E53.38354
G1 X84.325 Y82.113 E54.43417
G1 X83.763 Y82.150 E54.46390
G1 X69.800 Y68.200 E55.50608
G1 X69.375 Y68.363 E55.53062
G1 X83.200 Y82.188 E56.56331
G1 X82.638 Y82.225 E56.59304
G1 X68.950 Y68.538 E57.61515
G1 X68.538 Y68.738 E57.63901
G1 X82.075 Y82.263 E58.64986
G1 X81.513 Y82.300 E58.67959
G1 X68.138 Y68.925 E59.67855
G1 X67.750 Y69.138 E59.70189
G1 X80.950 Y82.338 E60.68797
G1 X80.388 Y82.375 E60.71770
G1 X67.363 Y69.350 E61.69054
G1 X67.000 Y69.588 E61.71349
G1 X79.825 Y82.413 E62.67189
G1 X79.263 Y82.450 E62.70163
G1 X66.638 Y69.825 E63.64508
G1 X66.275 Y70.063 E63.66792
G1 X78.700 Y82.488 E64.59641
G1 X78.138 Y82.525 E64.62614
G1 X65.925 Y70.313 E65.53849
G1 X65.588 Y70.563 E65.56106
G1 X77.575 Y82.563 E66.45689
G1 X77.013 Y82.600 E66.48662
G1 X65.263 Y70.838 E67.36488
G1 X64.938 Y71.125 E67.38730
G1 X76.450 Y82.638 E68.24748
G1 X75.900 Y82.675 E68.27721
G1 X64.625 Y71.400 E69.11876
G1 X64.325 Y71.700 E69.14113
G1 X75.313 Y82.688 E69.96180
G1 X74.713 Y82.700 E69.99320
G1 X64.025 Y72.000 E70.79154
G1 X63.750 Y72.325 E70.81393
G1 X74.100 Y82.675 E71.58745
G1 X73.450 Y82.625 E71.62219
G1 X63.463 Y72.638 E72.36756
G1 X63.200 Y72.975 E72.39004
G1 X72.763 Y82.538 E73.10456
G1 X72.038 Y82.400 E73.14383
G1 X62.938 Y73.313 E73.82323
G1 X62.688 Y73.650 E73.84589
G1 X71.263 Y82.238 E74.48656
G1 X70.438 Y82.000 E74.53215
G1 X62.450 Y74.013 E75.12873
G1 X62.213 Y74.375 E75.15158
G1 X69.500 Y81.675 E75.69632
G1 X68.450 Y81.213 F6000.000
G1 X61.988 Y74.750 F2100.000 E76.17916
G1 X62.150 Y75.513 E76.22067
G1 X67.138 Y80.513 E76.59321
; infill_end
G1 F900.000 E72.59321
G92 E0
G1 Z1.250 F6000.000
; Region: 0
; perimeter_start
G1 X100.738 Y73.525
G1 F900.000 E4.00000
G1 X95.213 Y73.525 F900.000 E4.27551
G1 X95.213 Y76.463 E4.42168
G1 X100.738 Y76.463 E4.69719
G1 X100.738 Y80.463 E4.89662
G1 X100.713 Y80.638 E4.90564
G1 X100.675 Y80.800 E4.91425
G1 X100.613 Y80.950 E4.92240
G1 X100.538 Y81.088 E4.93018
G1 X100.438 Y81.213 E4.93781
G1 X100.338 Y81.313 E4.94530
G1 X100.213 Y81.400 E4.95280
G1 X100.075 Y81.475 E4.96056
G1 X99.913 Y81.525 E4.96866
G1 X99.750 Y81.563 E4.97711
G1 X75.775 Y83.200 E6.17581
G1 X74.688 Y83.213 E6.23061
G1 X74.075 Y83.188 E6.26071
G1 X73.175 Y83.113 E6.30598
G1 X72.613 Y83.038 E6.33396
G1 X71.875 Y82.900 E6.37180
G1 X71.025 Y82.713 E6.41499
G1 X70.238 Y82.488 E6.45624
G1 X69.550 Y82.250 E6.49238
G1 X68.800 Y81.950 E6.53278
G1 X68.275 Y81.713 E6.56135
G1 X67.788 Y81.475 E6.58845
G1 X67.088 Y81.100 E6.62796
G1 X66.400 Y80.675 E6.66847
G1 X65.938 Y80.363 E6.69623
G1 X65.288 Y79.888 E6.73644
G1 X64.763 Y79.463 E6.76974
G1 X64.325 Y79.075 E6.79911
G1 X63.750 Y78.513 E6.83935
G1 X63.325 Y78.075 E6.86983
G1 X62.938 Y77.625 E6.89946
G1 X62.550 Y77.150 E6.93020
G1 X62.100 Y76.550 E6.96717
G1 X61.838 Y76.150 E6.99122
G1 X61.400 Y75.450 E7.03241
G1 X61.313 Y75.300 E7.04144
G1 X61.263 Y75.175 E7.04797
G1 X61.250 Y75.050 E7.05403
G1 X61.250 Y74.850 E7.06384
G1 X61.313 Y74.700 E7.07208
G1 X61.825 Y73.850 E7.12155
G1 X62.200 Y73.288 E7.15532
G1 X62.875 Y72.438 E7.20965
G1 X63.400 Y71.825 E7.24971
G1 X64.063 Y71.163 E7.29668
G1 X64.550 Y70.713 E7.32989
G1 X65.063 Y70.275 E7.36335
G1 X65.488 Y69.950 E7.38979
G1 X66.138 Y69.475 E7.43004
G1 X66.825 Y69.050 E7.47035
G1 X67.513 Y68.650 E7.50975
G1 X68.013 Y68.400 E7.53805
G1 X68.638 Y68.100 E7.57240
G1 X69.138 Y67.888 E7.59981
G1 X69.800 Y67.650 E7.63470
G1 X70.325 Y67.475 E7.66270
G1 X70.875 Y67.313 E7.69095
G1 X71.575 Y67.150 E7.72670
G1 X72.575 Y66.963 E7.77783
G1 X73.463 Y66.850 E7.82230
G1 X74.213 Y66.788 E7.85992
G1 X74.988 Y66.775 E7.89821
G1 X75.763 Y66.788 E7.93726
G1 X99.750 Y68.425 E9.13672
G1 X99.913 Y68.463 E9.14517
G1 X100.075 Y68.513 E9.15327
G1 X100.213 Y68.588 E9.16103
G1 X100.338 Y68.675 E9.16853
G1 X100.438 Y68.775 E9.17602
G1 X100.538 Y68.900 E9.18353
G1 X100.625 Y69.050 E9.19231
G1 X100.713 Y69.350 E9.20816
G1 X100.738 Y69.525 E9.21718
G1 X100.738 Y73.325 E9.40662
G1 X101.138 Y73.925
G1 X95.613 Y73.925 E9.68215
G1 X95.613 Y76.063 E9.78841
G1 X101.138 Y76.063 E10.06395
G1 X101.138 Y80.488 E10.28455
G1 X101.113 Y80.713 E10.29606
G1 X101.050 Y80.925 E10.30726
G1 X100.975 Y81.125 E10.31812
G1 X100.863 Y81.313 E10.32873
G1 X100.738 Y81.475 E10.33921
G1 X100.588 Y81.625 E10.34961
G1 X100.413 Y81.750 E10.36002
G1 X100.225 Y81.838 E10.37060
G1 X100.025 Y81.913 E10.38142
G1 X99.800 Y81.963 E10.39253
G1 X75.800 Y83.600 E11.59307
G1 X74.675 Y83.613 E11.64894
G1 X74.050 Y83.588 E11.68005
G1 X73.125 Y83.513 E11.72627
G1 X72.563 Y83.425 E11.75513
G1 X71.788 Y83.300 E11.79390
G1 X70.925 Y83.100 E11.83813
G1 X70.113 Y82.863 E11.88040
G1 X69.413 Y82.625 E11.91750
G1 X68.638 Y82.325 E11.95883
G1 X68.100 Y82.075 E11.98819
G1 X67.600 Y81.838 E12.01608
G1 X66.888 Y81.450 E12.05652
G1 X66.175 Y81.013 E12.09796
G1 X65.700 Y80.700 E12.12657
G1 X65.038 Y80.200 E12.16771
G1 X64.513 Y79.775 E12.20188
G1 X64.050 Y79.375 E12.23209
G1 X63.463 Y78.800 E12.27322
G1 X63.025 Y78.338 E12.30453
G1 X62.625 Y77.888 E12.33495
G1 X62.225 Y77.388 E12.36650
G1 X61.775 Y76.788 E12.40426
G1 X61.500 Y76.375 E12.42913
G1 X61.050 Y75.650 E12.47137
G1 X60.938 Y75.463 E12.48257
G1 X60.875 Y75.275 E12.49233
G1 X60.850 Y75.088 E12.50178
G1 X60.850 Y74.900 E12.51119
G1 X60.863 Y74.775 E12.51731
G1 X60.938 Y74.538 E12.53013
G1 X61.025 Y74.375 E12.53919
G1 X61.488 Y73.638 E12.58263
G1 X61.888 Y73.063 E12.61745
G1 X62.563 Y72.175 E12.67294
G1 X63.113 Y71.563 E12.71415
G1 X63.788 Y70.875 E12.76220
G1 X64.288 Y70.413 E12.79634
G1 X64.813 Y69.963 E12.83059
G1 X65.238 Y69.625 E12.85786
G1 X65.913 Y69.150 E12.89906
G1 X66.613 Y68.700 E12.94038
G1 X67.313 Y68.300 E12.98071
G1 X67.838 Y68.038 E13.00983
G1 X68.475 Y67.738 E13.04497
G1 X69.000 Y67.525 E13.07318
G1 X69.663 Y67.275 E13.10886
G1 X70.213 Y67.088 E13.13762
G1 X70.775 Y66.925 E13.16663
G1 X71.488 Y66.763 E13.20331
G1 X72.513 Y66.563 E13.25559
G1 X73.425 Y66.450 E13.30119
G1 X74.200 Y66.388 E13.33982
G1 X74.988 Y66.375 E13.37908
G1 X75.788 Y66.388 E13.41905
G1 X99.800 Y68.025 E14.62028
G1 X100.025 Y68.075 E14.63138
G1 X100.225 Y68.150 E14.64220
G1 X100.413 Y68.238 E14.65278
G1 X100.588 Y68.363 E14.66319
G1 X100.738 Y68.513 E14.67360
G1 X100.863 Y68.675 E14.68403
G1 X100.975 Y68.875 E14.69568
G1 X101.050 Y69.063 E14.70551
G1 X101.113 Y69.275 E14.71673
G1 X101.138 Y69.500 E14.72825
G1 X101.138 Y73.725 E14.93887
G1 X100.800 Y73.725
; perimeter_end
; infill_start
G1 X100.300 Y73.050
G1 X100.113 Y73.238 F2100.000 E14.95289
G1 X99.513 Y73.238 E14.98450
G1 X100.300 Y72.450 E15.04318
G1 X100.450 Y71.713 E15.08297
G1 X98.913 Y73.238 E15.19692
G1 X98.325 Y73.238 E15.22854
G1 X100.450 Y71.113 E15.38716
G1 X100.438 Y70.513 E15.41874
G1 X97.725 Y73.238 E15.62202
G1 X97.125 Y73.238 E15.65363
G1 X100.438 Y69.913 E15.90159
G1 X100.325 Y69.438 E15.92761
G1 X96.525 Y73.238 E16.21126
G1 X95.088 Y70.475 F6000.000
G1 X86.675 Y78.888 F2100.000 E16.83957
G1 X87.238 Y78.925 E16.86927
G1 X96.438 Y69.725 E17.55645
G1 X96.888 Y69.875 E17.58136
G1 X87.900 Y78.863 E18.25251
G1 X88.800 Y78.563
G1 X97.850 Y69.513 E18.92860
G1 X99.050 Y70.113 F6000.000
G1 X95.925 Y73.238 F2100.000 E19.16189
G1 X95.325 Y73.238 E19.19350
G1 X98.650 Y69.913 E19.44150
G1 X98.250 Y69.713 E19.46500
G1 X89.425 Y78.538 E20.12371
G1 X89.863 Y78.700 E20.14818
G1 X94.925 Y73.638 E20.52615
G1 X94.925 Y74.238 E20.55776
G1 X90.400 Y78.763 E20.89550
G1 X91.000 Y78.750 E20.92726
G1 X94.925 Y74.838 E21.22010
G1 X94.925 Y75.438 E21.25170
G1 X91.600 Y78.750 E21.49963
G1 X92.200 Y78.750 E21.53139
G1 X94.925 Y76.025 E21.73441
G1 X94.925 Y76.625 E21.76602
G1 X92.813 Y78.750 E21.92413
G1 X93.413 Y78.750 E21.95588
G1 X95.400 Y76.750 E22.10459
G1 X96.000 Y76.750 E22.13619
G1 X93.838 Y78.913 E22.29729
G1 X93.838 Y79.513 E22.32890
G1 X96.600 Y76.750 E22.53469
G1 X97.200 Y76.750 E22.56629
G1 X93.838 Y80.113 E22.81677
G1 X94.413 Y80.125 E22.84731
G1 X97.788 Y76.750 E23.09931
G1 X98.388 Y76.750 E23.13091
G1 X95.325 Y79.825 E23.36024
G1 X95.800 Y79.950 E23.38616
G1 X98.988 Y76.750 E23.62470
G1 X99.588 Y76.750 E23.65630
G1 X96.275 Y80.075 E23.90406
G1 X96.775 Y80.163 E23.93128
G1 X100.188 Y76.750 E24.18584
G1 X100.450 Y77.100 E24.20840
G1 X97.188 Y80.350 E24.45171
G1 X97.250 Y80.888 E24.47996
G1 X100.450 Y77.688 E24.71816
G1 X100.450 Y78.288 E24.74979
G1 X97.325 Y81.413 E24.98289
G1 X97.950 Y81.388 E25.01595
G1 X100.450 Y78.888 E25.20228
G1 X100.438 Y79.488 E25.23392
G1 X98.588 Y81.338 E25.37225
G1 X99.238 Y81.300 E25.40625
G1 X100.438 Y80.088 E25.49656
G1 F900.000 E21.49656
G92 E0
G1 X93.313 Y71.650 F6000.000
G1 F900.000 E4.00000
G1 X86.188 Y78.788 F2100.000 E4.53223
G1 X85.763 Y78.600 E4.55632
G1 X92.925 Y71.438 E5.09124
G1 X92.475 Y71.300 E5.11639
G1 X85.388 Y78.388 E5.64571
G1 X84.850 Y78.325 E5.67445
G1 X91.825 Y71.350 E6.19529
G1 X90.363 Y72.213 F6000.000
G1 X83.938 Y78.638 F2100.000 E6.67486
G1 X83.213 Y78.763 E6.71344
G1 X89.850 Y72.125 E7.20876
G1 X89.475 Y71.900 E7.23177
G1 X82.625 Y78.750 E7.74353
G1 X82.025 Y78.750 E7.77481
G1 X89.100 Y71.675 E8.30300
G1 X88.725 Y71.450 E8.32600
G1 X81.475 Y78.713 E8.86811
G1 X80.950 Y78.625 E8.89567
G1 X88.300 Y71.275 E9.44452
G1 X87.813 Y71.163 E9.47099
G1 X80.488 Y78.488 E10.01780
G1 X80.088 Y78.300 E10.04152
G1 X87.250 Y71.138 E10.57633
G1 X86.588 Y71.200 E10.61140
G1 X79.738 Y78.050 E11.12268
G1 X79.438 Y77.750 E11.14503
G1 X85.638 Y71.550 E11.60796
G1 X84.863 Y71.725 E11.64968
G1 X79.163 Y77.425 E12.07588
G1 X78.875 Y77.113 E12.09828
G1 X84.438 Y71.550 E12.51285
G1 X84.000 Y71.388 E12.53738
G1 X78.600 Y76.788 E12.94034
G1 X78.325 Y76.475 E12.96274
G1 X83.525 Y71.275 E13.35089
G1 X82.888 Y71.313 E13.38443
G1 X77.550 Y76.650 E13.78315
G1 X76.400 Y77.200 F6000.000
G1 X82.288 Y71.313 F2100.000 E14.22305
G1 X81.663 Y71.325 E14.25580
G1 X75.688 Y77.313 E14.70280
G1 X75.225 Y77.175 E14.72806
G1 X80.963 Y71.438 E15.15650
G1 X80.150 Y71.650 E15.20070
G1 X74.763 Y77.025 E15.60278
G1 X73.888 Y77.313 E15.65171
G1 X79.725 Y71.475 E16.08785
G1 X79.375 Y71.225 E16.11058
G1 X73.363 Y77.238 E16.55912
G1 X72.863 Y77.138 E16.58617
G1 X79.000 Y71.000 E17.04462
G1 X78.550 Y70.850 E17.06966
G1 X72.113 Y77.300 E17.55064
G1 X71.538 Y77.275 E17.58102
G1 X77.963 Y70.850 E18.06082
G1 X76.950 Y71.250 F6000.000
G1 X71.113 Y77.088 F2100.000 E18.49678
G1 X70.725 Y76.875 E18.52003
G1 X76.413 Y71.188 E18.94469
G1 X75.900 Y71.113 E18.97222
G1 X70.013 Y76.988 E19.41161
G1 X69.100 Y77.313
G1 X75.288 Y71.125 E19.87386
G1 X74.675 Y71.138 E19.90626
G1 X68.613 Y77.200 E20.35872
G1 X68.100 Y77.113 E20.38604
G1 X74.063 Y71.150 E20.83101
G1 X73.900 Y70.713 E20.85548
G1 X65.188 Y79.425 E21.50563
G1 X64.863 Y79.150 E21.52806
G1 X73.738 Y70.288 E22.19004
G1 X73.563 Y69.850 E22.21450
G1 X64.538 Y78.875 E22.88829
G1 X64.238 Y78.588 E22.91065
G1 X73.400 Y69.413 E23.59488
G1 X73.188 Y69.038 E23.61808
G1 X63.938 Y78.288 E24.30883
G1 X63.650 Y77.975 E24.33120
G1 X74.200 Y67.425 E25.11914
G1 X73.913 Y67.113 E25.14151
G1 X63.363 Y77.663 E25.92940
G1 X63.088 Y77.338 E25.95179
G1 X73.250 Y67.175 E26.71139
G1 X72.563 Y67.263 E26.74806
G1 X62.813 Y77.013 E27.47623
G1 X62.563 Y76.675 E27.49880
G1 X71.825 Y67.400 E28.19106
G1 X71.050 Y67.575 E28.23320
G1 X62.300 Y76.325 E28.88627
G1 X62.063 Y75.963 E28.90903
G1 X70.200 Y67.838 E29.51635
G1 X69.250 Y68.175 F6000.000
G1 X69.175 Y68.263 F2100.000 E29.52226
G1 X68.338 Y69.088 F6000.000
G1 X61.838 Y75.600 F2100.000 E30.00784
G1 X61.613 Y75.225 E30.03085
G1 X66.913 Y69.913 E30.42718
G1 X66.550 Y69.675 E30.45002
G1 X61.813 Y74.425 E30.80408
G1 X65.513 Y79.700 F6000.000
G1 X67.475 Y77.738 F2100.000 E30.95029
G1 X67.775 Y78.038 E30.97264
G1 X65.863 Y79.950 E31.11526
G1 X66.213 Y80.200 E31.13792
G1 X68.075 Y78.338 E31.27659
G1 X73.988 Y68.238 F6000.000
G1 X74.313 Y67.913 F2100.000 E31.30128
G1 X76.013 Y70.913 F6000.000
G1 X79.588 Y67.350 F2100.000 E31.55305
G1 X81.425 Y71.163 E31.76438
G1 X84.888 Y67.713 E32.00802
G1 X87.300 Y70.950 E32.20966
G1 X90.175 Y68.075 E32.41263
G1 X92.738 Y71.163 E32.61305
G1 X95.475 Y68.425 E32.80573
G1 X93.650 Y79.275 F6000.000
G1 X91.063 Y81.863 F2100.000 E32.98820
G1 X88.300 Y78.963 E33.18781
G1 X85.000 Y82.275 E33.42112
G1 X82.663 Y78.950 E33.62374
G1 X78.925 Y82.688 E33.88762
G1 X78.725 Y77.225 E34.16034
G1 X73.138 Y82.813 E34.55455
G1 X68.713 Y81.588 E34.78405
G1 X72.988 Y77.313 E35.08591
G1 X99.950 Y81.200 F6000.000
G1 X100.050 Y81.100 F2100.000 E35.09336
; infill_end
G1 F900.000 E31.09336
G92 E0
G1 Z1.550 F6000.000
; Region: 0
; perimeter_start
G1 X95.213 Y73.413
G1 F900.000 E4.00000
G1 X95.213 Y76.575 F605.926 E4.15760
G1 X100.888 Y76.575 E4.44020
G1 X100.875 Y80.613 E4.64171
G1 X100.863 Y80.788 E4.65075
G1 X100.813 Y80.963 E4.65928
G1 X100.750 Y81.113 E4.66745
G1 X100.675 Y81.250 E4.67525
G1 X100.588 Y81.363 E4.68282
G1 X100.475 Y81.475 E4.69037
G1 X100.350 Y81.563 E4.69793
G1 X100.213 Y81.625 E4.70565
G1 X100.063 Y81.688 E4.71369
G1 X99.900 Y81.713 E4.72212
G1 X75.850 Y83.413 E5.92451
G1 X75.125 Y83.425 E5.96089
G1 X74.275 Y83.413 E6.00316
G1 X73.350 Y83.350 E6.04928
G1 X72.600 Y83.250 E6.08704
G1 X71.863 Y83.125 E6.12435
G1 X71.150 Y82.963 E6.16120
G1 X70.300 Y82.738 E6.20501
G1 X69.475 Y82.463 E6.24828
G1 X68.863 Y82.225 E6.28096
G1 X68.350 Y82.013 E6.30911
G1 X67.575 Y81.638 E6.35148
G1 X66.913 Y81.275 E6.38920
G1 X66.200 Y80.850 E6.43093
G1 X65.513 Y80.375 E6.47259
G1 X65.075 Y80.050 E6.49999
G1 X64.525 Y79.613 E6.53451
G1 X64.013 Y79.150 E6.56898
G1 X63.513 Y78.675 E6.60348
G1 X63.050 Y78.200 E6.63653
G1 X62.400 Y77.438 E6.68674
G1 X61.975 Y76.888 E6.72137
G1 X61.488 Y76.188 E6.76380
G1 X60.963 Y75.338 E6.81365
G1 X60.913 Y75.225 E6.82015
G1 X60.875 Y75.038 E6.82912
G1 X60.875 Y74.938 E6.83445
G1 X60.900 Y74.813 E6.84044
G1 X60.938 Y74.688 E6.84711
G1 X61.025 Y74.525 E6.85636
G1 X61.325 Y74.050 E6.88425
G1 X61.875 Y73.225 E6.93382
G1 X62.300 Y72.675 E6.96868
G1 X62.650 Y72.250 E6.99637
G1 X63.113 Y71.725 E7.03109
G1 X63.600 Y71.225 E7.06564
G1 X64.200 Y70.663 E7.10710
G1 X64.775 Y70.175 E7.14445
G1 X65.275 Y69.788 E7.17590
G1 X66.050 Y69.238 E7.22339
G1 X66.513 Y68.938 E7.25090
G1 X67.150 Y68.575 E7.28713
G1 X67.638 Y68.313 E7.31509
G1 X68.150 Y68.075 E7.34314
G1 X68.800 Y67.788 E7.37865
G1 X69.325 Y67.575 E7.40701
G1 X70.013 Y67.338 E7.44306
G1 X70.563 Y67.175 E7.47196
G1 X71.125 Y67.025 E7.50112
G1 X71.850 Y66.863 E7.53815
G1 X72.588 Y66.738 E7.57551
G1 X73.188 Y66.663 E7.60569
G1 X73.800 Y66.600 E7.63613
G1 X74.663 Y66.563 E7.67953
G1 X75.363 Y66.563 E7.71413
G1 X76.000 Y66.588 E7.74612
G1 X99.900 Y68.275 E8.94110
G1 X100.063 Y68.300 E8.94950
G1 X100.213 Y68.363 E8.95754
G1 X100.350 Y68.425 E8.96526
G1 X100.475 Y68.513 E8.97282
G1 X100.588 Y68.625 E8.98037
G1 X100.675 Y68.738 E8.98794
G1 X100.750 Y68.875 E8.99574
G1 X100.813 Y69.025 E9.00391
G1 X100.863 Y69.200 E9.01244
G1 X100.875 Y69.375 E9.02149
G1 X100.888 Y73.413 E9.22299
G1 X95.413 Y73.413 E9.49561
G1 X95.613 Y73.813
G1 X95.613 Y76.175 E9.61330
G1 X101.288 Y76.175 E9.89592
G1 X101.275 Y80.638 E10.11859
G1 X101.250 Y80.863 E10.13011
G1 X101.200 Y81.088 E10.14126
G1 X101.113 Y81.288 E10.15214
G1 X101.013 Y81.475 E10.16275
G1 X100.875 Y81.638 E10.17321
G1 X100.725 Y81.775 E10.18362
G1 X100.563 Y81.900 E10.19404
G1 X100.375 Y82.000 E10.20460
G1 X100.163 Y82.063 E10.21539
G1 X99.950 Y82.113 E10.22649
G1 X75.875 Y83.813 E11.43058
G1 X75.125 Y83.825 E11.46784
G1 X74.263 Y83.813 E11.51113
G1 X73.313 Y83.750 E11.55832
G1 X72.550 Y83.650 E11.59706
G1 X71.788 Y83.513 E11.63529
G1 X71.050 Y83.350 E11.67308
G1 X70.188 Y83.125 E11.71792
G1 X69.338 Y82.838 E11.76218
G1 X68.713 Y82.600 E11.79571
G1 X68.175 Y82.375 E11.82467
G1 X67.400 Y82.000 E11.86798
G1 X66.713 Y81.625 E11.90668
G1 X65.988 Y81.188 E11.94941
G1 X65.275 Y80.700 E11.99202
G1 X64.825 Y80.363 E12.02023
G1 X64.275 Y79.913 E12.05557
G1 X63.738 Y79.450 E12.09089
G1 X63.225 Y78.963 E12.12625
G1 X62.763 Y78.463 E12.16023
G1 X62.088 Y77.688 E12.21149
G1 X61.650 Y77.125 E12.24713
G1 X61.150 Y76.413 E12.29040
G1 X60.600 Y75.525 E12.34274
G1 X60.525 Y75.338 E12.35261
G1 X60.475 Y75.088 E12.36552
G1 X60.475 Y74.900 E12.37468
G1 X60.513 Y74.713 E12.38408
G1 X60.575 Y74.525 E12.39392
G1 X60.688 Y74.325 E12.40523
G1 X60.988 Y73.838 E12.43414
G1 X61.550 Y73.000 E12.48472
G1 X61.988 Y72.425 E12.52050
G1 X62.350 Y71.988 E12.54897
G1 X62.825 Y71.450 E12.58450
G1 X63.313 Y70.938 E12.61994
G1 X63.938 Y70.363 E12.66237
G1 X64.525 Y69.863 E12.70064
G1 X65.038 Y69.463 E12.73301
G1 X65.825 Y68.900 E12.78146
G1 X66.313 Y68.600 E12.80983
G1 X66.950 Y68.225 E12.84684
G1 X67.463 Y67.963 E12.87554
G1 X67.975 Y67.713 E12.90433
G1 X68.650 Y67.413 E12.94063
G1 X69.188 Y67.200 E12.96979
G1 X69.888 Y66.963 E13.00662
G1 X70.450 Y66.788 E13.03628
G1 X71.038 Y66.638 E13.06621
G1 X71.775 Y66.475 E13.10408
G1 X72.538 Y66.338 E13.14232
G1 X73.150 Y66.263 E13.17329
G1 X73.775 Y66.200 E13.20456
G1 X74.663 Y66.163 E13.24890
G1 X75.375 Y66.163 E13.28439
G1 X76.025 Y66.188 E13.31708
G1 X99.950 Y67.875 E14.51363
G1 X100.163 Y67.925 E14.52469
G1 X100.375 Y67.988 E14.53549
G1 X100.563 Y68.088 E14.54604
G1 X100.725 Y68.213 E14.55647
G1 X100.875 Y68.350 E14.56688
G1 X101.013 Y68.513 E14.57733
G1 X101.113 Y68.700 E14.58794
G1 X101.200 Y68.900 E14.59882
G1 X101.250 Y69.125 E14.60998
G1 X101.275 Y69.350 E14.62149
G1 X101.288 Y73.813 E14.84417
G1 X95.813 Y73.813 E15.11681
G1 X95.213 Y73.813
; perimeter_end
; infill_start
G1 X94.925 Y75.375 F6000.000
G1 X87.213 Y67.675 F1413.828 E15.66055
G1 X81.138 Y67.250 E15.96491
G1 X95.613 Y81.725 E16.98632
G1 X90.325 Y82.100 E17.25064
G1 X75.088 Y66.850 E18.32579
G1 X70.175 Y67.613 E18.57334
G1 X85.038 Y82.463 E19.62163
G1 X79.750 Y82.838 E19.88595
G1 X66.325 Y69.413 E20.83325
G1 X64.213 Y72.950 F6000.000
G1 X74.375 Y83.125 F1413.828 E21.55095
G1 X96.413 Y76.863 F6000.000
G1 X100.500 Y80.950 F1413.828 E21.83937
G1 F900.000 E17.83937
G92 E0
G1 X98.325 Y73.125 F6000.000
G1 F900.000 E4.00000
G1 X93.300 Y68.100 F1413.828 E4.35400
G1 X99.388 Y68.538 E4.65836
G1 X100.588 Y69.725 E4.74276
G1 X65.963 Y70.925 F6000.000
G1 X65.238 Y70.188 F1413.828 E4.79854
G1 X64.888 Y70.463 E4.82209
G1 X65.650 Y71.213 E4.87994
G1 X65.338 Y71.513 E4.90331
G1 X64.563 Y70.738 E4.96214
G1 X64.238 Y71.025 E4.98553
G1 X65.013 Y71.800 E5.04474
G1 X64.713 Y72.113 E5.06810
G1 X63.925 Y71.325 E5.12813
G1 X63.613 Y71.625 E5.15149
G1 X64.413 Y72.425 E5.21238
G1 X64.125 Y72.750 E5.23579
G1 X63.313 Y71.938 E5.29780
G1 X63.025 Y72.263 E5.32120
G1 X63.838 Y73.088 E5.38347
G1 X63.575 Y73.425 E5.40705
G1 X62.750 Y72.600 E5.47052
G1 X62.475 Y72.938 E5.49404
G1 X63.313 Y73.775 E5.55796
G1 X63.063 Y74.138 E5.58174
G1 X62.213 Y73.288 E5.64731
G1 X61.950 Y73.638 E5.67099
G1 X62.825 Y74.513 E5.73754
G1 X62.600 Y74.900 E5.76170
G1 X61.713 Y74.000 E5.82994
G1 X61.463 Y74.375 E5.85386
G1 X63.388 Y76.288 E5.99998
G1 X66.138 Y79.650 F6000.000
G1 X61.238 Y74.763 F1413.828 E6.37342
G1 X61.475 Y75.613 E6.42070
G1 X65.850 Y79.988 E6.75481
G1 X65.163 Y70.350 F6000.000
G1 X65.113 Y70.288 F1413.828 E6.76061
; infill_end
G1 F900.000 E2.76061
G92 E0
G1 Z1.850 F6000.000
; Region: 0
; perimeter_start
G1 X95.213 Y76.588
G1 F900.000 E4.00000
G1 X101.025 Y76.588 F625.057 E4.28962
G1 X101.025 Y80.763 E4.49804
G1 X101.000 Y80.950 E4.50706
G1 X100.950 Y81.113 E4.51567
G1 X100.900 Y81.263 E4.52383
G1 X100.813 Y81.400 E4.53158
G1 X100.725 Y81.525 E4.53917
G1 X100.613 Y81.625 E4.54676
G1 X100.488 Y81.713 E4.55429
G1 X100.350 Y81.788 E4.56197
G1 X100.213 Y81.838 E4.56978
G1 X99.988 Y81.875 E4.58088
G1 X75.925 Y83.625 E5.78444
G1 X75.388 Y83.638 E5.81135
G1 X74.588 Y83.638 E5.85136
G1 X73.800 Y83.600 E5.89060
G1 X72.863 Y83.513 E5.93738
G1 X72.163 Y83.400 E5.97291
G1 X71.363 Y83.238 E6.01362
G1 X70.638 Y83.063 E6.05114
G1 X69.913 Y82.850 E6.08839
G1 X69.363 Y82.663 E6.11783
G1 X68.813 Y82.450 E6.14713
G1 X68.138 Y82.163 E6.18357
G1 X67.400 Y81.813 E6.22456
G1 X66.713 Y81.450 E6.26310
G1 X66.025 Y81.025 E6.30366
G1 X65.075 Y80.375 E6.36060
G1 X64.475 Y79.900 E6.39894
G1 X64.038 Y79.538 E6.42727
G1 X63.488 Y79.025 E6.46501
G1 X62.938 Y78.488 E6.50320
G1 X62.425 Y77.925 E6.54146
G1 X61.875 Y77.250 E6.58467
G1 X61.525 Y76.788 E6.61335
G1 X61.150 Y76.238 E6.64703
G1 X60.600 Y75.338 E6.69930
G1 X60.538 Y75.200 E6.70685
G1 X60.513 Y75.013 E6.71649
G1 X60.538 Y74.800 E6.72731
G1 X60.625 Y74.600 E6.73833
G1 X61.138 Y73.763 E6.78692
G1 X61.575 Y73.125 E6.82566
G1 X61.988 Y72.600 E6.85897
G1 X62.538 Y71.938 E6.90208
G1 X63.125 Y71.313 E6.94514
G1 X63.538 Y70.913 E6.97352
G1 X63.950 Y70.525 E7.00202
G1 X64.838 Y69.800 E7.05903
G1 X65.763 Y69.125 E7.11613
G1 X66.250 Y68.825 E7.14472
G1 X66.875 Y68.450 E7.18063
G1 X67.638 Y68.050 E7.22408
G1 X68.300 Y67.750 E7.26031
G1 X68.975 Y67.463 E7.29691
G1 X69.538 Y67.263 E7.32626
G1 X70.088 Y67.075 E7.35570
G1 X70.963 Y66.838 E7.40065
G1 X71.850 Y66.638 E7.44611
G1 X72.600 Y66.513 E7.48427
G1 X73.213 Y66.438 E7.51512
G1 X73.838 Y66.388 E7.54628
G1 X74.475 Y66.350 E7.57773
G1 X75.100 Y66.338 E7.60942
G1 X76.088 Y66.375 E7.65826
G1 X100.038 Y68.113 E8.85642
G1 X100.200 Y68.150 E8.86486
G1 X100.350 Y68.200 E8.87293
G1 X100.488 Y68.275 E8.88061
G1 X100.613 Y68.363 E8.88814
G1 X100.725 Y68.463 E8.89574
G1 X100.813 Y68.588 E8.90332
G1 X100.900 Y68.725 E8.91107
G1 X100.950 Y68.875 E8.91923
G1 X101.000 Y69.038 E8.92784
G1 X101.025 Y69.225 E8.93687
G1 X101.025 Y73.400 E9.14527
G1 X95.213 Y73.400 E9.43490
G1 X95.213 Y76.388 E9.58398
G1 X95.613 Y76.188
G1 X101.425 Y76.188 E9.87362
G1 X101.425 Y80.788 E10.10321
G1 X101.388 Y81.025 E10.11471
G1 X101.338 Y81.238 E10.12590
G1 X101.250 Y81.438 E10.13676
G1 X101.150 Y81.625 E10.14734
G1 X101.025 Y81.788 E10.15781
G1 X100.875 Y81.938 E10.16824
G1 X100.700 Y82.050 E10.17865
G1 X100.513 Y82.150 E10.18920
G1 X100.313 Y82.225 E10.19991
G1 X100.038 Y82.275 E10.21364
G1 X75.950 Y84.013 E11.41867
G1 X75.400 Y84.038 E11.44631
G1 X74.575 Y84.038 E11.48720
G1 X73.775 Y84.000 E11.52743
G1 X72.813 Y83.900 E11.57523
G1 X72.100 Y83.800 E11.61170
G1 X71.275 Y83.638 E11.65333
G1 X70.525 Y83.450 E11.69176
G1 X69.800 Y83.238 E11.72986
G1 X69.225 Y83.038 E11.76005
G1 X68.663 Y82.825 E11.79010
G1 X67.975 Y82.538 E11.82740
G1 X67.213 Y82.163 E11.86933
G1 X66.513 Y81.788 E11.90882
G1 X65.813 Y81.363 E11.95027
G1 X65.313 Y81.038 E11.97954
G1 X64.838 Y80.700 E12.00873
G1 X64.225 Y80.213 E12.04788
G1 X63.775 Y79.838 E12.07702
G1 X63.200 Y79.313 E12.11561
G1 X62.650 Y78.763 E12.15473
G1 X62.125 Y78.175 E12.19394
G1 X61.563 Y77.500 E12.23809
G1 X61.213 Y77.025 E12.26758
G1 X60.813 Y76.463 E12.30202
G1 X60.238 Y75.525 E12.35678
G1 X60.163 Y75.338 E12.36703
G1 X60.125 Y75.213 E12.37315
G1 X60.100 Y75.025 E12.38265
G1 X60.113 Y74.838 E12.39207
G1 X60.175 Y74.588 E12.40462
G1 X60.275 Y74.400 E12.41515
G1 X60.800 Y73.550 E12.46531
G1 X61.250 Y72.900 E12.50502
G1 X61.675 Y72.350 E12.53924
G1 X62.238 Y71.675 E12.58333
G1 X62.838 Y71.025 E12.62734
G1 X63.263 Y70.613 E12.65650
G1 X63.688 Y70.225 E12.68570
G1 X64.138 Y69.838 E12.71490
G1 X64.588 Y69.475 E12.74410
G1 X65.063 Y69.125 E12.77334
G1 X65.550 Y68.800 E12.80259
G1 X66.038 Y68.475 E12.83191
G1 X66.675 Y68.100 E12.86868
G1 X67.463 Y67.688 E12.91309
G1 X68.138 Y67.375 E12.95024
G1 X68.838 Y67.100 E12.98767
G1 X69.400 Y66.888 E13.01776
G1 X69.975 Y66.700 E13.04802
G1 X70.863 Y66.450 E13.09394
G1 X71.775 Y66.250 E13.14042
G1 X72.550 Y66.125 E13.17950
G1 X73.175 Y66.038 E13.21114
G1 X73.813 Y65.988 E13.24305
G1 X74.463 Y65.950 E13.27526
G1 X75.113 Y65.938 E13.30781
G1 X76.100 Y65.975 E13.35750
G1 X100.088 Y67.725 E14.55734
G1 X100.313 Y67.763 E14.56842
G1 X100.513 Y67.838 E14.57921
G1 X100.700 Y67.938 E14.58976
G1 X100.875 Y68.050 E14.60017
G1 X101.025 Y68.200 E14.61061
G1 X101.150 Y68.363 E14.62107
G1 X101.250 Y68.550 E14.63165
G1 X101.338 Y68.750 E14.64251
G1 X101.388 Y68.963 E14.65370
G1 X101.425 Y69.200 E14.66520
G1 X101.425 Y73.800 E14.89478
G1 X95.613 Y73.800 E15.18443
G1 X95.613 Y75.988 E15.29360
G1 X95.613 Y76.588
; perimeter_end
; infill_start
G1 X94.925 Y75.588 F6000.000
G1 X88.063 Y82.450 F1458.467 E15.77738
G1 X94.163 Y82.000 E16.08244
G1 X99.288 Y76.888 E16.44373
G1 F900.000 E12.44373
G92 E0
G1 X97.413 Y73.100 F6000.000
G1 F900.000 E4.00000
G1 X100.725 Y69.788 F1458.467 E4.23419
G1 X96.688 Y68.163 E4.45127
G1 X81.963 Y82.888 E5.48971
G1 X75.875 Y83.325 E5.79470
G1 X91.413 Y67.788 E6.89124
G1 X86.138 Y67.400 E7.15505
G1 X70.750 Y82.788 E8.24065
G1 X66.763 Y81.125 E8.45650
G1 X80.863 Y67.025 E9.45180
G1 X75.575 Y66.650 E9.71640
G1 X64.475 Y77.763 E10.49983
G1 X66.050 Y70.513 E10.86955
G1 X68.650 Y67.925 E11.05283
G1 X62.950 Y73.775 F6000.000
G1 X61.100 Y75.625 F1458.467 E11.19618
G1 X61.350 Y75.988 E11.22092
G1 X62.238 Y75.100 E11.29001
G1 X62.475 Y75.500 E11.31508
G1 X61.600 Y76.363 E11.38270
G1 X61.863 Y76.738 E11.40735
G1 X62.713 Y75.875 E11.47424
G1 X62.975 Y76.250 E11.49895
G1 X62.125 Y77.088 E11.56454
G1 X62.413 Y77.438 E11.58891
G1 X63.238 Y76.600 E11.65329
G1 X63.513 Y76.950 E11.67772
G1 X62.688 Y77.775 E11.74140
G1 X62.988 Y78.100 E11.76569
G1 X63.788 Y77.300 E11.82827
G1 X64.088 Y77.625 E11.85257
G1 X63.288 Y78.425 E11.91434
G1 X63.600 Y78.738 E11.93860
G1 X64.388 Y77.950 E11.99986
G1 X64.700 Y78.263 E12.02412
G1 X63.925 Y79.038 E12.08443
G1 X64.250 Y79.338 E12.10872
G1 X65.025 Y78.563 E12.16877
G1 X65.350 Y78.863 E12.19305
G1 X64.588 Y79.613 E12.25190
G1 X64.938 Y79.888 E12.27635
G1 X65.663 Y79.163 E12.33305
G1 X60.875 Y75.225 F6000.000
G1 X65.700 Y70.400 F1458.467 E12.70874
G1 X65.413 Y70.063 E12.73306
G1 X61.113 Y74.363 E13.06712
; infill_end
G1 F900.000 E9.06712
G92 E0
G1 Z2.150 F6000.000
; Region: 0
; perimeter_start
G1 X95.213 Y73.475
G1 F900.000 E4.00000
G1 X95.213 Y76.513 F628.571 E4.15124
G1 X101.163 Y76.513 E4.44789
G1 X101.163 Y80.925 E4.66786
G1 X101.138 Y81.100 E4.67683
G1 X101.100 Y81.263 E4.68545
G1 X101.038 Y81.413 E4.69359
G1 X100.963 Y81.550 E4.70144
G1 X100.863 Y81.675 E4.70910
G1 X100.763 Y81.775 E4.71620
G1 X100.638 Y81.863 E4.72416
G1 X100.500 Y81.938 E4.73178
G1 X100.338 Y81.988 E4.73986
G1 X100.175 Y82.025 E4.74830
G1 X75.988 Y83.838 E5.95875
G1 X75.350 Y83.863 E5.99044
G1 X74.513 Y83.850 E6.03206
G1 X73.875 Y83.825 E6.06400
G1 X73.238 Y83.763 E6.09581
G1 X72.613 Y83.688 E6.12732
G1 X72.013 Y83.600 E6.15762
G1 X71.250 Y83.438 E6.19649
G1 X70.488 Y83.250 E6.23584
G1 X69.750 Y83.038 E6.27400
G1 X69.200 Y82.838 E6.30327
G1 X68.613 Y82.625 E6.33426
G1 X67.925 Y82.325 E6.37174
G1 X67.250 Y82.000 E6.40911
G1 X66.600 Y81.650 E6.44613
G1 X65.825 Y81.188 E6.49065
G1 X65.338 Y80.875 E6.52001
G1 X64.863 Y80.525 E6.54944
G1 X63.950 Y79.813 E6.60739
G1 X63.500 Y79.413 E6.63678
G1 X63.075 Y79.013 E6.66605
G1 X62.463 Y78.375 E6.71037
G1 X61.875 Y77.713 E6.75480
G1 X61.500 Y77.250 E6.78428
G1 X61.150 Y76.775 E6.81402
G1 X60.800 Y76.275 E6.84382
G1 X60.488 Y75.775 E6.87370
G1 X60.225 Y75.338 E6.89877
G1 X60.175 Y75.213 E6.90564
G1 X60.138 Y74.975 E6.91769
G1 X60.175 Y74.775 E6.92783
G1 X60.313 Y74.488 E6.94360
G1 X60.800 Y73.725 E6.98863
G1 X61.138 Y73.238 E7.01834
G1 X61.488 Y72.763 E7.04806
G1 X61.863 Y72.288 E7.07770
G1 X62.250 Y71.838 E7.10727
G1 X62.650 Y71.413 E7.13680
G1 X63.063 Y70.988 E7.16624
G1 X63.488 Y70.588 E7.19568
G1 X63.938 Y70.188 E7.22511
G1 X64.388 Y69.813 E7.25451
G1 X64.838 Y69.475 E7.28303
G1 X65.325 Y69.125 E7.31250
G1 X65.825 Y68.788 E7.34290
G1 X66.338 Y68.488 E7.37238
G1 X66.988 Y68.125 E7.40962
G1 X67.513 Y67.850 E7.43917
G1 X68.338 Y67.475 E7.48416
G1 X69.175 Y67.150 E7.52939
G1 X69.900 Y66.913 E7.56734
G1 X70.488 Y66.738 E7.59766
G1 X71.388 Y66.513 E7.64402
G1 X72.150 Y66.363 E7.68290
G1 X72.775 Y66.275 E7.71409
G1 X73.563 Y66.188 E7.75363
G1 X74.525 Y66.138 E7.80196
G1 X75.013 Y66.125 E7.82600
G1 X76.163 Y66.163 E7.88343
G1 X100.175 Y67.963 E9.08514
G1 X100.338 Y68.000 E9.09358
G1 X100.500 Y68.050 E9.10166
G1 X100.638 Y68.125 E9.10933
G1 X100.750 Y68.213 E9.11687
G1 X100.863 Y68.313 E9.12437
G1 X100.963 Y68.438 E9.13200
G1 X101.038 Y68.575 E9.13986
G1 X101.100 Y68.725 E9.14799
G1 X101.138 Y68.888 E9.15661
G1 X101.163 Y69.063 E9.16559
G1 X101.163 Y73.475 E9.38557
G1 X95.413 Y73.475 E9.67224
G1 X95.613 Y73.875
G1 X95.613 Y76.113 E9.78357
G1 X101.563 Y76.113 E10.08024
G1 X101.563 Y80.950 E10.32141
G1 X101.538 Y81.175 E10.33287
G1 X101.475 Y81.388 E10.34405
G1 X101.400 Y81.588 E10.35488
G1 X101.288 Y81.775 E10.36551
G1 X101.163 Y81.938 E10.37600
G1 X101.025 Y82.075 E10.38594
G1 X100.838 Y82.213 E10.39681
G1 X100.650 Y82.300 E10.40732
G1 X100.450 Y82.375 E10.41812
G1 X100.238 Y82.425 E10.42921
G1 X76.000 Y84.225 E11.64130
G1 X75.350 Y84.263 E11.67378
G1 X74.500 Y84.250 E11.71628
G1 X73.850 Y84.225 E11.74902
G1 X73.200 Y84.163 E11.78158
G1 X72.563 Y84.088 E11.81382
G1 X71.938 Y83.988 E11.84488
G1 X71.163 Y83.838 E11.88459
G1 X70.375 Y83.638 E11.92485
G1 X69.625 Y83.413 E11.96385
G1 X69.063 Y83.225 E11.99388
G1 X68.463 Y82.988 E12.02562
G1 X67.763 Y82.688 E12.06394
G1 X67.063 Y82.363 E12.10217
G1 X66.400 Y82.000 E12.14011
G1 X65.613 Y81.538 E12.18555
G1 X65.113 Y81.200 E12.21569
G1 X64.625 Y80.850 E12.24582
G1 X63.688 Y80.113 E12.30513
G1 X63.238 Y79.713 E12.33521
G1 X62.800 Y79.300 E12.36527
G1 X62.163 Y78.650 E12.41054
G1 X61.563 Y77.963 E12.45594
G1 X61.188 Y77.488 E12.48621
G1 X60.825 Y77.000 E12.51665
G1 X60.475 Y76.500 E12.54716
G1 X60.138 Y75.988 E12.57777
G1 X59.875 Y75.525 E12.60455
G1 X59.788 Y75.338 E12.61446
G1 X59.750 Y75.150 E12.62401
G1 X59.738 Y74.963 E12.63337
G1 X59.788 Y74.650 E12.64916
G1 X59.838 Y74.525 E12.65563
G1 X59.975 Y74.288 E12.66928
G1 X60.463 Y73.513 E12.71536
G1 X60.813 Y73.000 E12.74587
G1 X61.175 Y72.513 E12.77629
G1 X61.550 Y72.038 E12.80664
G1 X61.950 Y71.575 E12.83691
G1 X62.350 Y71.138 E12.86713
G1 X62.775 Y70.700 E12.89726
G1 X63.225 Y70.288 E12.92740
G1 X63.675 Y69.888 E12.95752
G1 X64.138 Y69.500 E12.98762
G1 X64.600 Y69.150 E13.01683
G1 X65.100 Y68.800 E13.04699
G1 X65.613 Y68.450 E13.07810
G1 X66.138 Y68.138 E13.10832
G1 X66.800 Y67.763 E13.14633
G1 X67.338 Y67.488 E13.17672
G1 X68.175 Y67.113 E13.22267
G1 X69.038 Y66.775 E13.26892
G1 X69.788 Y66.525 E13.30774
G1 X70.375 Y66.350 E13.33890
G1 X71.300 Y66.125 E13.38621
G1 X72.088 Y65.975 E13.42599
G1 X72.725 Y65.875 E13.45802
G1 X73.525 Y65.788 E13.49848
G1 X74.513 Y65.738 E13.54772
G1 X75.013 Y65.725 E13.57248
G1 X76.188 Y65.763 E13.63114
G1 X100.238 Y67.563 E14.83442
G1 X100.450 Y67.613 E14.84550
G1 X100.650 Y67.688 E14.85630
G1 X100.838 Y67.775 E14.86683
G1 X101.013 Y67.900 E14.87727
G1 X101.163 Y68.050 E14.88763
G1 X101.288 Y68.213 E14.89811
G1 X101.400 Y68.400 E14.90874
G1 X101.475 Y68.600 E14.91958
G1 X101.538 Y68.813 E14.93076
G1 X101.563 Y69.038 E14.94221
G1 X101.563 Y73.875 E15.18340
G1 X95.813 Y73.875 E15.47009
G1 X95.213 Y73.875
; perimeter_end
; infill_start
G1 X97.500 Y73.188 F6000.000
G1 X91.963 Y67.638 F1466.667 E15.86104
G1 X98.075 Y68.100 E16.16691
G1 X100.863 Y70.888 E16.36402
G1 F900.000 E12.36402
G92 E0
G1 X95.463 Y76.800 F6000.000
G1 F900.000 E4.00000
G1 X100.338 Y81.675 F1466.667 E4.34386
G1 X94.925 Y76.263 F6000.000
G1 X85.850 Y67.188 F1466.667 E4.98430
G1 X79.738 Y66.725 E5.29017
G1 X95.113 Y82.113 E6.37531
G1 X89.850 Y82.500 E6.63867
G1 X73.813 Y66.475 E7.76975
G1 X69.163 Y67.475 E8.00729
G1 X84.588 Y82.900 E9.09538
G1 X79.325 Y83.288 E9.35873
G1 X65.438 Y69.413 E10.33809
G1 X63.388 Y73.013 F6000.000
G1 X73.888 Y83.513 F1466.667 E11.07903
G1 X65.288 Y79.575 F6000.000
G1 X60.500 Y74.788 F1466.667 E11.44702
G1 X60.800 Y75.713 E11.49965
G1 X64.988 Y79.888 E11.82143
G1 X62.663 Y76.338 F6000.000
G1 X60.725 Y74.400 F1466.667 E11.97075
G1 X60.963 Y74.013 E11.99509
G1 X61.863 Y74.913 E12.06427
G1 X62.088 Y74.525 E12.08875
G1 X61.213 Y73.650 E12.15663
G1 X61.463 Y73.288 E12.18066
G1 X62.325 Y74.150 E12.24653
G1 X62.575 Y73.775 E12.27064
G1 X61.738 Y72.938 E12.33523
G1 X62.000 Y72.588 E12.35914
G1 X62.838 Y73.425 E12.42329
G1 X63.100 Y73.075 E12.44719
G1 X62.288 Y72.263 E12.51028
G1 X62.575 Y71.925 E12.53404
G1 X63.375 Y72.738 E12.59583
G1 X63.663 Y72.400 E12.61959
G1 X62.863 Y71.600 E12.68121
G1 X63.175 Y71.300 E12.70493
G1 X63.963 Y72.088 E12.76533
G1 X64.263 Y71.775 E12.78905
G1 X63.488 Y71.000 E12.84895
G1 X63.813 Y70.700 E12.87268
G1 X64.575 Y71.463 E12.93195
G1 X64.900 Y71.175 E12.95568
G1 X64.138 Y70.413 E13.01405
G1 X64.475 Y70.125 E13.03784
G1 X65.225 Y70.875 E13.09532
; infill_end
G1 F900.000 E9.09532
G92 E0
G1 Z2.450 F6000.000
; Region: 0
; perimeter_start
G1 X95.213 Y73.675
G1 F900.000 E4.00000
G1 X95.213 Y76.313 F649.778 E4.13110
G1 X101.300 Y76.313 E4.43473
G1 X101.300 Y81.088 E4.67321
G1 X101.275 Y81.250 E4.68139
G1 X101.238 Y81.413 E4.69000
G1 X101.175 Y81.575 E4.69815
G1 X101.100 Y81.700 E4.70595
G1 X101.000 Y81.825 E4.71357
G1 X100.900 Y81.938 E4.72113
G1 X100.775 Y82.025 E4.72866
G1 X100.638 Y82.088 E4.73643
G1 X100.488 Y82.150 E4.74449
G1 X100.313 Y82.175 E4.75286
G1 X75.925 Y84.050 E5.97326
G1 X75.075 Y84.075 E6.01575
G1 X74.438 Y84.063 E6.04755
G1 X73.775 Y84.025 E6.08095
G1 X72.800 Y83.938 E6.12961
G1 X72.025 Y83.813 E6.16862
G1 X71.225 Y83.663 E6.20928
G1 X70.613 Y83.513 E6.24075
G1 X70.025 Y83.350 E6.27103
G1 X69.113 Y83.050 E6.31884
G1 X68.413 Y82.788 E6.35651
G1 X67.688 Y82.475 E6.39582
G1 X66.863 Y82.063 E6.44189
G1 X66.200 Y81.700 E6.47918
G1 X65.675 Y81.388 E6.51034
G1 X65.025 Y80.950 E6.54927
G1 X64.425 Y80.513 E6.58622
G1 X63.738 Y79.975 E6.63013
G1 X63.250 Y79.550 E6.66206
G1 X62.813 Y79.138 E6.69236
G1 X62.400 Y78.725 E6.72096
G1 X61.963 Y78.250 E6.75310
G1 X61.563 Y77.788 E6.78351
G1 X61.188 Y77.313 E6.81402
G1 X60.838 Y76.850 E6.84282
G1 X60.488 Y76.350 E6.87349
G1 X60.138 Y75.800 E6.90604
G1 X59.863 Y75.350 E6.93239
G1 X59.813 Y75.213 E6.93942
G1 X59.788 Y75.088 E6.94575
G1 X59.775 Y74.975 E6.95165
G1 X59.788 Y74.863 E6.95748
G1 X59.863 Y74.650 E6.96853
G1 X60.125 Y74.213 E6.99403
G1 X60.450 Y73.688 E7.02482
G1 X60.800 Y73.188 E7.05550
G1 X61.175 Y72.688 E7.08611
G1 X61.550 Y72.213 E7.11665
G1 X61.950 Y71.750 E7.14706
G1 X62.363 Y71.300 E7.17748
G1 X62.788 Y70.875 E7.20783
G1 X63.238 Y70.450 E7.23820
G1 X63.688 Y70.050 E7.26848
G1 X64.163 Y69.675 E7.29873
G1 X64.788 Y69.200 E7.33761
G1 X65.400 Y68.775 E7.37475
G1 X65.913 Y68.450 E7.40506
G1 X66.575 Y68.075 E7.44331
G1 X67.113 Y67.788 E7.47376
G1 X67.813 Y67.463 E7.51223
G1 X68.375 Y67.213 E7.54293
G1 X69.100 Y66.938 E7.58173
G1 X69.700 Y66.738 E7.61278
G1 X70.288 Y66.563 E7.64389
G1 X71.213 Y66.338 E7.69138
G1 X71.838 Y66.200 E7.72293
G1 X72.625 Y66.075 E7.76309
G1 X73.113 Y66.025 E7.78701
G1 X73.750 Y65.963 E7.81929
G1 X74.738 Y65.913 E7.86853
G1 X75.563 Y65.925 E7.90980
G1 X76.238 Y65.963 E7.94324
G1 X100.313 Y67.813 E9.14839
G1 X100.488 Y67.838 E9.15676
G1 X100.638 Y67.900 E9.16482
G1 X100.775 Y67.963 E9.17258
G1 X100.900 Y68.050 E9.18011
G1 X101.000 Y68.163 E9.18767
G1 X101.100 Y68.288 E9.19530
G1 X101.175 Y68.413 E9.20309
G1 X101.238 Y68.575 E9.21124
G1 X101.275 Y68.738 E9.21982
G1 X101.300 Y68.913 E9.22885
G1 X101.300 Y73.675 E9.46652
G1 X95.413 Y73.675 E9.76017
G1 X95.613 Y74.075
G1 X95.613 Y75.913 E9.85136
G1 X101.700 Y75.913 E10.15501
G1 X101.700 Y81.113 E10.41468
G1 X101.675 Y81.325 E10.42534
G1 X101.613 Y81.538 E10.43650
G1 X101.538 Y81.750 E10.44736
G1 X101.438 Y81.925 E10.45797
G1 X101.300 Y82.100 E10.46842
G1 X101.150 Y82.238 E10.47885
G1 X100.988 Y82.363 E10.48926
G1 X100.800 Y82.463 E10.49983
G1 X100.588 Y82.538 E10.51061
G1 X100.375 Y82.575 E10.52166
G1 X75.950 Y84.450 E11.74383
G1 X75.075 Y84.475 E11.78725
G1 X74.425 Y84.463 E11.81986
G1 X73.738 Y84.425 E11.85410
G1 X72.750 Y84.325 E11.90371
G1 X71.963 Y84.213 E11.94367
G1 X71.138 Y84.050 E11.98519
G1 X70.513 Y83.900 E12.01741
G1 X69.913 Y83.738 E12.04849
G1 X68.988 Y83.438 E12.09723
G1 X68.263 Y83.163 E12.13583
G1 X67.525 Y82.838 E12.17606
G1 X66.675 Y82.425 E12.22310
G1 X66.000 Y82.050 E12.26126
G1 X65.463 Y81.725 E12.29321
G1 X64.788 Y81.288 E12.33298
G1 X64.175 Y80.838 E12.37084
G1 X63.475 Y80.275 E12.41564
G1 X62.988 Y79.850 E12.44838
G1 X62.525 Y79.425 E12.47938
G1 X62.113 Y79.000 E12.50865
G1 X61.663 Y78.525 E12.54151
G1 X61.263 Y78.050 E12.57264
G1 X60.863 Y77.563 E12.60384
G1 X60.513 Y77.088 E12.63332
G1 X60.150 Y76.575 E12.66471
G1 X59.788 Y76.013 E12.69800
G1 X59.513 Y75.525 E12.72612
G1 X59.425 Y75.338 E12.73620
G1 X59.388 Y75.150 E12.74583
G1 X59.375 Y74.963 E12.75520
G1 X59.400 Y74.775 E12.76458
G1 X59.500 Y74.463 E12.78101
G1 X59.775 Y74.000 E12.80804
G1 X60.125 Y73.463 E12.83953
G1 X60.475 Y72.950 E12.87093
G1 X60.850 Y72.450 E12.90224
G1 X61.250 Y71.950 E12.93348
G1 X61.650 Y71.488 E12.96462
G1 X62.075 Y71.025 E12.99573
G1 X62.513 Y70.588 E13.02678
G1 X62.963 Y70.163 E13.05784
G1 X63.438 Y69.750 E13.08882
G1 X63.913 Y69.350 E13.11983
G1 X64.550 Y68.875 E13.15954
G1 X65.175 Y68.450 E13.19750
G1 X65.700 Y68.113 E13.22858
G1 X66.388 Y67.725 E13.26762
G1 X66.938 Y67.425 E13.29887
G1 X67.650 Y67.088 E13.33813
G1 X68.225 Y66.850 E13.36961
G1 X68.975 Y66.563 E13.40921
G1 X69.575 Y66.363 E13.44102
G1 X70.188 Y66.175 E13.47293
G1 X71.125 Y65.938 E13.52131
G1 X71.763 Y65.813 E13.55371
G1 X72.575 Y65.688 E13.59462
G1 X73.063 Y65.625 E13.61924
G1 X73.725 Y65.563 E13.65231
G1 X74.725 Y65.513 E13.70252
G1 X75.575 Y65.525 E13.74475
G1 X76.263 Y65.563 E13.77889
G1 X100.375 Y67.413 E14.98558
G1 X100.588 Y67.450 E14.99662
G1 X100.800 Y67.525 E15.00740
G1 X100.988 Y67.625 E15.01798
G1 X101.150 Y67.750 E15.02839
G1 X101.300 Y67.888 E15.03881
G1 X101.438 Y68.063 E15.04927
G1 X101.538 Y68.238 E15.05987
G1 X101.613 Y68.450 E15.07073
G1 X101.675 Y68.663 E15.08189
G1 X101.700 Y68.888 E15.09340
G1 X101.700 Y74.075 E15.35223
G1 X95.813 Y74.075 E15.64590
G1 X95.213 Y74.075
; perimeter_end
; infill_start
G1 X94.925 Y76.175 F6000.000
G1 X88.288 Y82.813 F1516.148 E16.11377
G1 X94.425 Y82.338 E16.42030
G1 X100.150 Y76.600 E16.82496
G1 F900.000 E12.82496
G92 E0
G1 X97.713 Y73.388 F6000.000
G1 F900.000 E4.00000
